WongHK101/Infrared-Physics-Technology/submission_materials/protocol_validation_20260710/ipt_synthetic_qa_20260710_193252/synthetic_perturbation_trials.csv
scene_id,scene_name,canonical_scene_pass,image_name,mode,severity_px,known_mean_displacement_px,baseline_edge_f1,perturbed_edge_f1,delta_edge_f1,baseline_grad_ncc,perturbed_grad_ncc,delta_grad_ncc,baseline_joint_score,perturbed_joint_score,delta_joint_score,valid_ratio
01,01_day_grayscale_wide_substation_power_lines_50,True,000001.jpg,translation,2.0,1.9999999999999898,0.3265906971085608,0.3156259493871777,-0.010964747721383117,0.20438350604761157,0.21350042750366235,0.00911692145605078,0.4643912250661833,0.4611880815695044,-0.003203143496678884,0.12721761067708334
01,01_day_grayscale_wide_substation_power_lines_50,True,000001.jpg,translation,5.0,5.000000000000018,0.3265906971085608,0.32438530776737884,-0.0022053893411819736,0.20438350604761157,0.22994891033939904,0.02556540429178747,0.4643912250661833,0.4696798814685392,0.0052886564023558735,0.12749113859953703
01,01_day_grayscale_wide_substation_power_lines_50,True,000001.jpg,translation,10.0,9.999999999999991,0.3265906971085608,0.32513089141862034,-0.0014598056899404743,0.20438350604761157,0.23390263917818188,0.029519133130570308,0.4643912250661833,0.4710411055038557,0.006649880437672395,0.12730577256944445
01,01_day_grayscale_wide_substation_power_lines_50,True,000001.jpg,translation,20.0,19.99999999999999,0.3265906971085608,0.3246577238364291,-0.0019329732721317106,0.20438350604761157,0.1993860665984203,-0.004997439449191288,0.4643912250661833,0.4621753785678196,-0.002215846498363705,0.12752278645833334
01,01_day_grayscale_wide_substation_power_lines_50,True,000001.jpg,translation,40.0,40.00000000000002,0.3265906971085608,0.2261046934372326,-0.1004860036713282,0.20438350604761157,0.1289015382963098,-0.07548196775130178,0.4643912250661833,0.3952777312926937,-0.06911349377348958,0.12748209635416666
01,01_day_grayscale_wide_substation_power_lines_50,True,000001.jpg,rotation,2.0,1.318222035330653,0.3265906971085608,0.34050310707004994,0.013912409961489125,0.20438350604761157,0.2056234327921974,0.0012399267445858397,0.4643912250661833,0.4716574117330743,0.007266186666890995,0.12740297670717593
01,01_day_grayscale_wide_substation_power_lines_50,True,000001.jpg,rotation,5.0,3.2955425726658016,0.3265906971085608,0.3001747936340809,-0.026415903474479918,0.20438350604761157,0.19789138763605074,-0.006492118411560832,0.4643912250661833,0.4495602437260531,-0.014830981340130223,0.12736680772569445
01,01_day_grayscale_wide_substation_power_lines_50,True,000001.jpg,rotation,10.0,6.590995748219984,0.3265906971085608,0.31177792273682686,-0.01481277437173395,0.20438350604761157,0.20194321878068539,-0.002440287266926189,0.4643912250661833,0.45637476606358474,-0.008016459002598564,0.12738489221643517
01,01_day_grayscale_wide_substation_power_lines_50,True,000001.jpg,rotation,20.0,13.181276334097188,0.3265906971085608,0.30690757240490796,-0.019683124703652854,0.20438350604761157,0.2027199645300735,-0.0016635415175380863,0.4643912250661833,0.45413377733497234,-0.010257447731210956,0.1273826316550926
01,01_day_grayscale_wide_substation_power_lines_50,True,000001.jpg,rotation,40.0,26.356831835040015,0.3265906971085608,0.30990978414504344,-0.01668091296351737,0.20438350604761157,0.2147257532395317,0.010342247191920118,0.4643912250661833,0.45863633038240464,-0.005754894683778655,0.12737584997106483
01,01_day_grayscale_wide_substation_power_lines_50,True,000001.jpg,scale,2.0,1.3182229889061245,0.3265906971085608,0.3388233592207521,0.012232662112191262,0.20438350604761157,0.20570011195835766,0.0013166059107460881,0.4643912250661833,0.47083670759996543,0.006445482533782132,0.12849934895833334
01,01_day_grayscale_wide_substation_power_lines_50,True,000001.jpg,scale,5.0,3.295557472265234,0.3265906971085608,0.32006803013253854,-0.006522666976022273,0.20438350604761157,0.20067942573381176,-0.003704080313799818,0.4643912250661833,0.4602038714997222,-0.004187353566461105,0.12995741102430555
01,01_day_grayscale_wide_substation_power_lines_50,True,000001.jpg,scale,10.0,6.591114944530493,0.3265906971085608,0.3156471174408061,-0.010943579667754721,0.20438350604761157,0.199022074075032,-0.005361431972579572,0.4643912250661833,0.457579077239161,-0.006812147827022275,0.1329051830150463
01,01_day_grayscale_wide_substation_power_lines_50,True,000001.jpg,scale,20.0,13.182229889060963,0.3265906971085608,0.3418279151108221,0.015237218002261299,0.20438350604761157,0.20329214267213644,-0.001091363375475135,0.4643912250661833,0.47173699322344514,0.007345768157261845,0.1381157769097222
01,01_day_grayscale_wide_substation_power_lines_50,True,000001.jpg,scale,40.0,26.364459778121955,0.3265906971085608,0.28832436836690306,-0.03826632874165775,0.20438350604761157,0.19750834666828512,-0.006875159379326451,0.4643912250661833,0.4435392708505228,-0.020851954215660495,0.14945023148148148
01,01_day_grayscale_wide_substation_power_lines_50,True,000005.jpg,translation,2.0,1.9999999999999898,0.4822074263392533,0.5204171451855506,0.038209718846297314,0.2845257566818506,0.2961801558365875,0.011654399154736927,0.5622351523400893,0.5842536115519221,0.022018459211832875,0.12721761067708334
01,01_day_grayscale_wide_substation_power_lines_50,True,000005.jpg,translation,5.0,5.000000000000018,0.4822074263392533,0.5134540362108632,0.031246609871609876,0.2845257566818506,0.327008833840682,0.04248307715883143,0.5622351523400893,0.588479226565602,0.02624407422551278,0.12749113859953703
01,01_day_grayscale_wide_substation_power_lines_50,True,000005.jpg,translation,10.0,9.999999999999991,0.4822074263392533,0.5297729237824186,0.047565497443165294,0.2845257566818506,0.4053619472657823,0.12083619058393169,0.5622351523400893,0.6162269487076548,0.05399179636756557,0.12730577256944445
01,01_day_grayscale_wide_substation_power_lines_50,True,000005.jpg,translation,20.0,19.99999999999999,0.4822074263392533,0.5061930233022874,0.02398559696303415,0.2845257566818506,0.31705306574806574,0.03252730906621515,0.5622351523400893,0.5823597780881602,0.020124625748070946,0.12752278645833334
01,01_day_grayscale_wide_substation_power_lines_50,True,000005.jpg,translation,40.0,40.00000000000002,0.4822074263392533,0.2718363659573632,-0.21037106038189007,0.2845257566818506,0.15801012451964463,-0.12651563216220596,0.5622351523400893,0.4254207141085927,-0.13681443823149653,0.12748209635416666
01,01_day_grayscale_wide_substation_power_lines_50,True,000005.jpg,rotation,2.0,1.318222035330653,0.4822074263392533,0.48073087238139056,-0.0014765539578627251,0.2845257566818506,0.28233084714637474,-0.002194909535475853,0.5622351523400893,0.560948147977289,-0.0012870043628002703,0.12740297670717593
01,01_day_grayscale_wide_substation_power_lines_50,True,000005.jpg,rotation,5.0,3.2955425726658016,0.4822074263392533,0.4815899475969212,-0.0006174787423320893,0.2845257566818506,0.2860983150373886,0.0015725583555379896,0.5622351523400893,0.5623195525578077,8.440021771849437e-05,0.12736680772569445
01,01_day_grayscale_wide_substation_power_lines_50,True,000005.jpg,rotation,10.0,6.590995748219984,0.4822074263392533,0.4963153549973186,0.014107928658065316,0.2845257566818506,0.28936887229844094,0.004843115616590343,0.5622351523400893,0.5704998955732695,0.008264743233180272,0.12738489221643517
01,01_day_grayscale_wide_substation_power_lines_50,True,000005.jpg,rotation,20.0,13.181276334097188,0.4822074263392533,0.4998901730607296,0.017682746721476295,0.2845257566818506,0.29509019440706086,0.010564437725210263,0.5622351523400893,0.57371763513213,0.011482482792040782,0.1273826316550926
01,01_day_grayscale_wide_substation_power_lines_50,True,000005.jpg,rotation,40.0,26.356831835040015,0.4822074263392533,0.4945314251965906,0.012323998857337315,0.2845257566818506,0.2959938036445131,0.011468046962662515,0.5622351523400893,0.5712641635094236,0.0090290111693343,0.12737584997106483
01,01_day_grayscale_wide_substation_power_lines_50,True,000005.jpg,scale,2.0,1.3182229889061245,0.4822074263392533,0.49575217329504695,0.013544746955793663,0.2845257566818506,0.2866644612403244,0.002138704558473814,0.5622351523400893,0.5695422019576046,0.007307049617515382,0.12849934895833334
01,01_day_grayscale_wide_substation_power_lines_50,True,000005.jpg,scale,5.0,3.295557472265234,0.4822074263392533,0.48576796255488897,0.003560536215635679,0.2845257566818506,0.2821362378501214,-0.0023895188317292204,0.5622351523400893,0.5634180407399748,0.0011828883998855622,0.12995741102430555
01,01_day_grayscale_wide_substation_power_lines_50,True,000005.jpg,scale,10.0,6.591114944530493,0.4822074263392533,0.4953853217635345,0.013177895424281216,0.2845257566818506,0.28320013062644117,-0.0013256260554094235,0.5622351523400893,0.5684926935383775,0.006257541198288252,0.1329051830150463
01,01_day_grayscale_wide_substation_power_lines_50,True,000005.jpg,scale,20.0,13.182229889060963,0.4822074263392533,0.49120498106679283,0.008997554727539547,0.2845257566818506,0.2858655907939573,0.001339834112106697,0.5622351523400893,0.5670688882318857,0.004833735891796476,0.1381157769097222
01,01_day_grayscale_wide_substation_power_lines_50,True,000005.jpg,scale,40.0,26.364459778121955,0.4822074263392533,0.48882187191298243,0.006614445573729144,0.2845257566818506,0.2822345243122523,-0.002291232369598273,0.5622351523400893,0.5649695670345543,0.002734414694465004,0.14945023148148148
01,01_day_grayscale_wide_substation_power_lines_50,True,000010.jpg,translation,2.0,1.9999999999999898,0.16328385739741438,0.17252057327900752,0.009236715881593138,-0.23463656969437852,-0.2264922934732469,0.008144276221131619,0.2729827862751126,0.279637213271192,0.006654426996079432,0.12721761067708334
01,01_day_grayscale_wide_substation_power_lines_50,True,000010.jpg,translation,5.0,5.000000000000018,0.16328385739741438,0.1783197067944742,0.01503584939705982,-0.23463656969437852,-0.2264553483971559,0.008181221297222624,0.2729827862751126,0.2825460162979481,0.009563230022835545,0.12749113859953703
01,01_day_grayscale_wide_substation_power_lines_50,True,000010.jpg,translation,10.0,9.999999999999991,0.16328385739741438,0.18995841899968138,0.026674561602267,-0.23463656969437852,-0.22401334736670667,0.01062322232767185,0.2729827862751126,0.28897587265816405,0.01599308638305147,0.12730577256944445
01,01_day_grayscale_wide_substation_power_lines_50,True,000010.jpg,translation,20.0,19.99999999999999,0.16328385739741438,0.2034047300939217,0.040120872696507326,-0.23463656969437852,-0.1863691506718562,0.04826741902252232,0.2729827862751126,0.3051100773789968,0.03212729110388424,0.12752278645833334
01,01_day_grayscale_wide_substation_power_lines_50,True,000010.jpg,translation,40.0,40.00000000000002,0.16328385739741438,0.2749306761050889,0.11164681870767454,-0.23463656969437852,-0.10887750270095296,0.12575906699342554,0.2729827862751126,0.3602459623773062,0.08726317610219364,0.12748209635416666
01,01_day_grayscale_wide_substation_power_lines_50,True,000010.jpg,rotation,2.0,1.318222035330653,0.16328385739741438,0.1635711665976237,0.00028730920020930695,-0.23463656969437852,-0.2320797128377515,0.0025568568566270156,0.2729827862751126,0.27376565508937395,0.0007828688142613727,0.12740297670717593
01,01_day_grayscale_wide_substation_power_lines_50,True,000010.jpg,rotation,5.0,3.2955425726658016,0.16328385739741438,0.16505651964843215,0.0017726622510177703,-0.23463656969437852,-0.2312799546609683,0.0033566150334102263,0.2729827862751126,0.274708271158974,0.0017254848838614278,0.12736680772569445
01,01_day_grayscale_wide_substation_power_lines_50,True,000010.jpg,rotation,10.0,6.590995748219984,0.16328385739741438,0.16540400693052648,0.002120149533112098,-0.23463656969437852,-0.2249137913547454,0.009722778339633115,0.2729827862751126,0.2764735556265769,0.0034907693514643068,0.12738489221643517
01,01_day_grayscale_wide_substation_power_lines_50,True,000010.jpg,rotation,20.0,13.181276334097188,0.16328385739741438,0.17023180837216315,0.006947950974748762,-0.23463656969437852,-0.21658451986820387,0.018052049826174643,0.2729827862751126,0.2809697742190306,0.007986987943918,0.1273826316550926
01,01_day_grayscale_wide_substation_power_lines_50,True,000010.jpg,rotation,40.0,26.356831835040015,0.16328385739741438,0.18402913082489167,0.020745273427477284,-0.23463656969437852,-0.20654756666807045,0.028089003026308068,0.2729827862751126,0.2903776737454282,0.017394887470315645,0.12737584997106483
01,01_day_grayscale_wide_substation_power_lines_50,True,000010.jpg,scale,2.0,1.3182229889061245,0.16328385739741438,0.16503469760406203,0.001750840206647647,-0.23463656969437852,-0.2333820241203129,0.0012545455740656242,0.2729827862751126,0.27417184277195283,0.0011890564968402573,0.12623426649305555
01,01_day_grayscale_wide_substation_power_lines_50,True,000010.jpg,scale,5.0,3.2955574722652385,0.16328385739741438,0.171145722864689,0.007861865467274604,-0.23463656969437852,-0.23221692732500776,0.002419642369370756,0.2729827862751126,0.2775186296010925,0.004535843325979949,0.12479428891782407
01,01_day_grayscale_wide_substation_power_lines_50,True,000010.jpg,scale,10.0,6.5911149445304895,0.16328385739741438,0.17273729685388142,0.009453439456467039,-0.23463656969437852,-0.2313358059090485,0.0033007637853300076,0.2729827862751126,0.2785346969496786,0.005551910674566007,0.12221272786458333
01,01_day_grayscale_wide_substation_power_lines_50,True,000010.jpg,scale,20.0,13.182229889060963,0.16328385739741438,0.17247254234717052,0.009188684949756137,-0.23463656969437852,-0.2289302903644713,0.005706279329907221,0.2729827862751126,0.27900369858246743,0.006020912307354853,0.11701569733796297
01,01_day_grayscale_wide_substation_power_lines_50,True,000010.jpg,scale,40.0,26.364459778121944,0.16328385739741438,0.19632087719409175,0.033037019796677364,-0.23463656969437852,-0.2144832016724978,0.020153368021880724,0.2729827862751126,0.2945396381789214,0.02155685190380885,0.10713478370949074
02,02_day_grayscale_zoom_substation_power_lines_50,False,000001.jpg,translation,2.0,1.9999999999999898,0.3303408664221664,0.31839321196316966,-0.01194765445899676,0.29875127519352945,0.2757571209229728,-0.022994154270556677,0.4898582520094656,0.47813588621232805,-0.011722365797137535,0.89691162109375
02,02_day_grayscale_zoom_substation_power_lines_50,False,000001.jpg,translation,5.0,5.000000000000018,0.3303408664221664,0.31194017666418233,-0.01840068975798409,0.29875127519352945,0.24880266645050764,-0.049948608743021816,0.4898582520094656,0.46817075494471805,-0.02168749706474754,0.8970043041087963
02,02_day_grayscale_zoom_substation_power_lines_50,False,000001.jpg,translation,10.0,9.999999999999991,0.3303408664221664,0.2999669159771182,-0.030373950445048203,0.29875127519352945,0.2297905793043551,-0.06896069588917436,0.4898582520094656,0.4574311028146479,-0.032427149194817706,0.8969274450231481
02,02_day_grayscale_zoom_substation_power_lines_50,False,000001.jpg,translation,20.0,19.99999999999999,0.3303408664221664,0.2978275827663726,-0.03251328365579381,0.29875127519352945,0.216825008135269,-0.08192626705826045,0.4898582520094656,0.4531200434170035,-0.036738208592462074,0.8954942491319444
02,02_day_grayscale_zoom_substation_power_lines_50,False,000001.jpg,translation,40.0,40.00000000000002,0.3303408664221664,0.24691982672623106,-0.08342103969593537,0.29875127519352945,0.1684393413054087,-0.13031193388812076,0.4898582520094656,0.41556974868946767,-0.07428850331999792,0.8716543692129629
02,02_day_grayscale_zoom_substation_power_lines_50,False,000001.jpg,rotation,2.0,1.3182220353306504,0.3303408664221664,0.32979942295717807,-0.0005414434649883559,0.29875127519352945,0.29603830767181577,-0.002712967521713683,0.4898582520094656,0.488909288396543,-0.0009489636129225709,0.8962334526909722
02,02_day_grayscale_zoom_substation_power_lines_50,False,000001.jpg,rotation,5.0,3.2955425726658034,0.3303408664221664,0.3484735121384609,0.01813264571629447,0.29875127519352945,0.30141424076960915,0.002662965576079701,0.4898582520094656,0.49959031626163275,0.00973206425216716,0.8954716435185185
02,02_day_grayscale_zoom_substation_power_lines_50,False,000001.jpg,rotation,10.0,6.590995748219982,0.3303408664221664,0.37029681992070235,0.03995595349853592,0.29875127519352945,0.31469593179372807,0.015944656600198615,0.4898582520094656,0.5138223929087832,0.023964140899317588,0.8940836588541666
02,02_day_grayscale_zoom_substation_power_lines_50,False,000001.jpg,rotation,20.0,13.181276334097184,0.3303408664221664,0.3580039148609767,0.02766304843881029,0.29875127519352945,0.3064263447602186,0.007675069566689174,0.4898582520094656,0.5056085436205431,0.015750291611077494,0.8900440357349537
02,02_day_grayscale_zoom_substation_power_lines_50,False,000001.jpg,rotation,40.0,26.35683183504002,0.3303408664221664,0.329715604382315,-0.0006252620398514153,0.29875127519352945,0.28104431886817627,-0.017706956325353185,0.4898582520094656,0.4851188819082016,-0.004739370101263962,0.8806197554976852
02,02_day_grayscale_zoom_substation_power_lines_50,False,000001.jpg,scale,2.0,1.3182229889061245,0.3303408664221664,0.3304025418508355,6.167542866908349e-05,0.29875127519352945,0.29939675937315247,0.0006454841796230126,0.4898582520094656,0.4900504607687059,0.00019220875924030878,0.9035215024594907
02,02_day_grayscale_zoom_substation_power_lines_50,False,000001.jpg,scale,5.0,3.295557472265234,0.3303408664221664,0.33856020735460485,0.008219340932438424,0.29875127519352945,0.31074226326674487,0.011990988073215414,0.4898582520094656,0.4969656694939887,0.007107417484523093,0.9131537543402778
02,02_day_grayscale_zoom_substation_power_lines_50,False,000001.jpg,scale,10.0,6.591114944530493,0.3303408664221664,0.3381314876483357,0.007790621226169303,0.29875127519352945,0.31962602798823997,0.020874752794710516,0.4898582520094656,0.49897225082122787,0.00911399881176228,0.9277253327546297
02,02_day_grayscale_zoom_substation_power_lines_50,False,000001.jpg,scale,20.0,13.182229889060963,0.3303408664221664,0.34550723577047887,0.015166369348312447,0.29875127519352945,0.3214214110911136,0.022670135897584154,0.4898582520094656,0.5031089706580179,0.013250718648552262,0.9536178023726852
02,02_day_grayscale_zoom_substation_power_lines_50,False,000001.jpg,scale,40.0,26.364459778121955,0.3303408664221664,0.36804622757455124,0.03770536115238482,0.29875127519352945,0.36304393128174606,0.0642926560882166,0.4898582520094656,0.5247840966077122,0.0349258445982466,0.9890204535590278
02,02_day_grayscale_zoom_substation_power_lines_50,False,000005.jpg,translation,2.0,1.9999999999999898,0.44516604209654104,0.4249792932754728,-0.020186748821068246,0.4605317241594219,0.41331043479934837,-0.047221289360073526,0.587715952088126,0.5658172553375735,-0.02189869675055245,0.89691162109375
02,02_day_grayscale_zoom_substation_power_lines_50,False,000005.jpg,translation,5.0,5.000000000000018,0.44516604209654104,0.41341381704297697,-0.031752225053564065,0.4605317241594219,0.36559591673549735,-0.09493580742392455,0.587715952088126,0.5481058877053628,-0.039610064382763155,0.8970043041087963
02,02_day_grayscale_zoom_substation_power_lines_50,False,000005.jpg,translation,10.0,9.999999999999991,0.44516604209654104,0.398363108704827,-0.04680293339171404,0.4605317241594219,0.34540434428566236,-0.11512737987375954,0.587715952088126,0.5355326404238291,-0.052183311664296905,0.8969274450231481
02,02_day_grayscale_zoom_substation_power_lines_50,False,000005.jpg,translation,20.0,19.99999999999999,0.44516604209654104,0.36398721823272395,-0.08117882386381708,0.4605317241594219,0.3114392576693053,-0.1490924664901166,0.587715952088126,0.5098534235336882,-0.07786252855443776,0.8954942491319444
02,02_day_grayscale_zoom_substation_power_lines_50,False,000005.jpg,translation,40.0,40.00000000000002,0.44516604209654104,0.28965571102276133,-0.1555103310737797,0.4605317241594219,0.23632722395724828,-0.2242045002021736,0.587715952088126,0.45390966150069273,-0.13380629058743326,0.8716543692129629
02,02_day_grayscale_zoom_substation_power_lines_50,False,000005.jpg,rotation,2.0,1.318222035330653,0.44516604209654104,0.4531112084396213,0.00794516634308029,0.4605317241594219,0.45987202404059035,-0.000659700118831541,0.587715952088126,0.5915236102299583,0.0038076581418322597,0.8969794379340278
02,02_day_grayscale_zoom_substation_power_lines_50,False,000005.jpg,rotation,5.0,3.2955425726658016,0.44516604209654104,0.45703131268207803,0.011865270585536991,0.4605317241594219,0.44925863339552485,-0.011273090763897042,0.587715952088126,0.5908303146899202,0.003114362601794207,0.8969138816550926
02,02_day_grayscale_zoom_substation_power_lines_50,False,000005.jpg,rotation,10.0,6.590995748219984,0.44516604209654104,0.46451471115148874,0.019348669054947698,0.4605317241594219,0.44975714371868475,-0.010774580440737147,0.587715952088126,0.5946966415054156,0.006980689417289576,0.8962515371817129
02,02_day_grayscale_zoom_substation_power_lines_50,False,000005.jpg,rotation,20.0,13.181276334097188,0.44516604209654104,0.45448773967864786,0.009321697582106825,0.4605317241594219,0.4270814771062636,-0.0334502470531583,0.587715952088126,0.5840142391158898,-0.003701712972236204,0.8934891312210648
02,02_day_grayscale_zoom_substation_power_lines_50,False,000005.jpg,rotation,40.0,26.356831835040015,0.44516604209654104,0.45260050729442425,0.007434465197883211,0.4605317241594219,0.41332246462016453,-0.047209259539257364,0.587715952088126,0.5796308698022532,-0.008085082285872791,0.8857580114293981
02,02_day_grayscale_zoom_substation_power_lines_50,False,000005.jpg,scale,2.0,1.3182229889061245,0.44516604209654104,0.45459270468316415,0.009426662586623114,0.4605317241594219,0.4639474162462703,0.0034156920868483875,0.587715952088126,0.5932832064031497,0.005567254315023695,0.9035215024594907
02,02_day_grayscale_zoom_substation_power_lines_50,False,000005.jpg,scale,5.0,3.295557472265234,0.44516604209654104,0.45563424424747634,0.010468202150935302,0.4605317241594219,0.47896358318906085,0.018431859029638953,0.587715952088126,0.5975580179210034,0.009842065832877389,0.9131537543402778
02,02_day_grayscale_zoom_substation_power_lines_50,False,000005.jpg,scale,10.0,6.591114944530493,0.44516604209654104,0.4467593301578334,0.001593288061292386,0.4605317241594219,0.4816032711237442,0.021071546964322285,0.587715952088126,0.5937804828598527,0.0060645307717267505,0.9277253327546297
02,02_day_grayscale_zoom_substation_power_lines_50,False,000005.jpg,scale,20.0,13.182229889060963,0.44516604209654104,0.4486913078494345,0.0035252657528934694,0.4605317241594219,0.4822078457029704,0.021676121543548477,0.587715952088126,0.5948976153504598,0.007181663262333826,0.9536178023726852
02,02_day_grayscale_zoom_substation_power_lines_50,False,000005.jpg,scale,40.0,26.364459778121955,0.44516604209654104,0.46646113718544363,0.021295095088902594,0.4605317241594219,0.49074234756503143,0.030210623405609538,0.587715952088126,0.6059161554839797,0.01820020339585371,0.9890204535590278
02,02_day_grayscale_zoom_substation_power_lines_50,False,000010.jpg,translation,2.0,1.9999999999999898,0.4404861994587187,0.41399701477455697,-0.026489184684161726,0.27398469919199464,0.2706194554056624,-0.0033652437863322393,0.538739274527358,0.524653371238694,-0.014085903288663992,0.8961678964120371
02,02_day_grayscale_zoom_substation_power_lines_50,False,000010.jpg,translation,5.0,5.000000000000018,0.4404861994587187,0.4019809280010543,-0.038505271457664414,0.27398469919199464,0.23327730773269068,-0.040707391459303965,0.538739274527358,0.5093097909336998,-0.029429483593658268,0.8948432074652778
02,02_day_grayscale_zoom_substation_power_lines_50,False,000010.jpg,translation,10.0,9.999999999999991,0.4404861994587187,0.35620759896595633,-0.08427860049276237,0.27398469919199464,0.1592853375664928,-0.11469936162550184,0.538739274527358,0.4679251338746014,-0.07081414065275665,0.8914116753472222
02,02_day_grayscale_zoom_substation_power_lines_50,False,000010.jpg,translation,20.0,19.99999999999999,0.4404861994587187,0.3161669824732969,-0.12431921698542181,0.27398469919199464,0.10624605080723942,-0.16773864838475522,0.538739274527358,0.4346450039384583,-0.10409427058889975,0.8831719292534722
02,02_day_grayscale_zoom_substation_power_lines_50,False,000010.jpg,translation,40.0,40.00000000000002,0.4404861994587187,0.3140802203397249,-0.12640597911899382,0.27398469919199464,0.11135690885907447,-0.16262779033292019,0.538739274527358,0.434879337384631,-0.10385993714272701,0.8667421694155093
02,02_day_grayscale_zoom_substation_power_lines_50,False,000010.jpg,rotation,2.0,1.3182220353306504,0.4404861994587187,0.43601853378888067,-0.004467665669838028,0.27398469919199464,0.26829579559589933,-0.005688903596095307,0.538739274527358,0.5350832157934151,-0.003656058733942924,0.8962334526909722
02,02_day_grayscale_zoom_substation_power_lines_50,False,000010.jpg,rotation,5.0,3.2955425726658034,0.4404861994587187,0.4169014850631301,-0.023584714395588624,0.27398469919199464,0.2457692759366497,-0.02821542325534493,0.538739274527358,0.5198930615157275,-0.018846213011630586,0.8954716435185185
02,02_day_grayscale_zoom_substation_power_lines_50,False,000010.jpg,rotation,10.0,6.590995748219982,0.4404861994587187,0.3787289961470666,-0.061757203311652076,0.27398469919199464,0.20195826820032092,-0.07202643099167372,0.538739274527358,0.4898540651236135,-0.04888520940374452,0.8940836588541666
02,02_day_grayscale_zoom_substation_power_lines_50,False,000010.jpg,rotation,20.0,13.181276334097184,0.4404861994587187,0.3795594545813294,-0.060926744877389305,0.27398469919199464,0.19217242367407555,-0.08181227551791909,0.538739274527358,0.4878228332091836,-0.05091644131817441,0.8900440357349537
02,02_day_grayscale_zoom_substation_power_lines_50,False,000010.jpg,rotation,40.0,26.35683183504002,0.4404861994587187,0.3707270013354188,-0.06975919812329989,0.27398469919199464,0.17696847766316645,-0.09701622152882819,0.538739274527358,0.479605620083501,-0.05913365444385704,0.8806197554976852
02,02_day_grayscale_zoom_substation_power_lines_50,False,000010.jpg,scale,2.0,1.3182229889061245,0.4404861994587187,0.41888463732996767,-0.02160156212875103,0.27398469919199464,0.24673214062044552,-0.027252558571549124,0.538739274527358,0.5211253538200952,-0.017613920707262865,0.9035215024594907
02,02_day_grayscale_zoom_substation_power_lines_50,False,000010.jpg,scale,5.0,3.295557472265234,0.4404861994587187,0.3859231172324163,-0.054563082226302406,0.27398469919199464,0.21156010122027816,-0.06242459797171648,0.538739274527358,0.4958515839212777,-0.04288769060608033,0.9131537543402778
02,02_day_grayscale_zoom_substation_power_lines_50,False,000010.jpg,scale,10.0,6.591114944530493,0.4404861994587187,0.3635957405631621,-0.07689045889555662,0.27398469919199464,0.1802041570707205,-0.09378054212127415,0.538739274527358,0.4768489095492612,-0.06189036497809686,0.9277253327546297
02,02_day_grayscale_zoom_substation_power_lines_50,False,000010.jpg,scale,20.0,13.182229889060963,0.4404861994587187,0.35822823076690025,-0.08225796869181845,0.27398469919199464,0.16716519027607357,-0.10681950891592107,0.538739274527358,0.4709054129524685,-0.06783386157488952,0.9536178023726852
02,02_day_grayscale_zoom_substation_power_lines_50,False,000010.jpg,scale,40.0,26.364459778121955,0.4404861994587187,0.3164496406129465,-0.1240365588457722,0.27398469919199464,0.1246828880853444,-0.14930181110665025,0.538739274527358,0.4393955423278093,-0.09934373219954873,0.9890204535590278
03,03_night_grayscale_wide_substation_power_lines_45,False,000001.jpg,translation,2.0,1.9999999999999898,0.5293718023153132,0.5244220033904873,-0.004949798924825943,0.382283720302943,0.3909137146869951,0.008629994384052098,0.6102568312333924,0.6099394303669925,-0.000317400866399864,0.18067762586805555
03,03_night_grayscale_wide_substation_power_lines_45,False,000001.jpg,translation,5.0,5.000000000000018,0.5293718023153132,0.5222999091593791,-0.00707189315593415,0.382283720302943,0.3755145439935924,-0.0067691763093505886,0.6102568312333924,0.6050285905780877,-0.0052282406553046945,0.18062337239583334
03,03_night_grayscale_wide_substation_power_lines_45,False,000001.jpg,translation,10.0,9.999999999999991,0.5293718023153132,0.47632280948248124,-0.05304899283283199,0.382283720302943,0.32321131417168053,-0.05907240613126247,0.6102568312333924,0.5689642332841608,-0.04129259794923157,0.18082908347800927
03,03_night_grayscale_wide_substation_power_lines_45,False,000001.jpg,translation,20.0,19.99999999999999,0.5293718023153132,0.4393658295368889,-0.09000597277842431,0.382283720302943,0.28273708461088637,-0.09954663569205663,0.6102568312333924,0.5403671859211661,-0.0698896453122263,0.18079969618055555
03,03_night_grayscale_wide_substation_power_lines_45,False,000001.jpg,translation,40.0,40.00000000000002,0.5293718023153132,0.2572876393528772,-0.27208416296243604,0.382283720302943,0.12509610877408925,-0.2571876115288537,0.6102568312333924,0.4099178468699609,-0.20033898436343145,0.1806007667824074
03,03_night_grayscale_wide_substation_power_lines_45,False,000001.jpg,rotation,2.0,1.3182220353306504,0.5293718023153132,0.5330332868781399,0.003661484562826667,0.382283720302943,0.3835426155600726,0.0012588952571295775,0.6102568312333924,0.6124022973290881,0.0021454660956957694,0.18064597800925927
03,03_night_grayscale_wide_substation_power_lines_45,False,000001.jpg,rotation,5.0,3.2955425726658034,0.5293718023153132,0.5277708278624289,-0.0016009744528843184,0.382283720302943,0.3825402318024555,0.00025651149951250174,0.6102568312333924,0.6095204718818283,-0.0007363593515640199,0.18064145688657407
03,03_night_grayscale_wide_substation_power_lines_45,False,000001.jpg,rotation,10.0,6.590995748219982,0.5293718023153132,0.5279126069950358,-0.0014591953202773844,0.382283720302943,0.3823236719285892,3.995162564618404e-05,0.6102568312333924,0.6095372214796653,-0.0007196097537270907,0.1806346752025463
03,03_night_grayscale_wide_substation_power_lines_45,False,000001.jpg,rotation,20.0,13.181276334097184,0.5293718023153132,0.5211682722907416,-0.008203530024571637,0.382283720302943,0.38237492347535146,9.120317240846054e-05,0.6102568312333924,0.6061778670142086,-0.004078964219183745,0.1806369357638889
03,03_night_grayscale_wide_substation_power_lines_45,False,000001.jpg,rotation,40.0,26.35683183504002,0.5293718023153132,0.5254563734617187,-0.003915428853594527,0.382283720302943,0.39069486197005876,0.008411141667115762,0.6102568312333924,0.610401902223374,0.0001450709899816216,0.18064145688657407
03,03_night_grayscale_wide_substation_power_lines_45,False,000001.jpg,scale,2.0,1.3182229889061245,0.5293718023153132,0.5317676398283842,0.002395837513070931,0.382283720302943,0.37877520176622825,-0.0035085185367147442,0.6102568312333924,0.6105776203557491,0.00032078912235677937,0.1821311668113426
03,03_night_grayscale_wide_substation_power_lines_45,False,000001.jpg,scale,5.0,3.295557472265234,0.5293718023153132,0.5220684936073725,-0.007303308707940714,0.382283720302943,0.37397589604751125,-0.00830782425543175,0.6102568312333924,0.604528220815564,-0.00572861041782835,0.1845770941840278
03,03_night_grayscale_wide_substation_power_lines_45,False,000001.jpg,scale,10.0,6.591114944530493,0.5293718023153132,0.5246449724517716,-0.0047268298635416706,0.382283720302943,0.3718590037236502,-0.010424716579292781,0.6102568312333924,0.6052872371567983,-0.0049695940765940305,0.18820981626157407
03,03_night_grayscale_wide_substation_power_lines_45,False,000001.jpg,scale,20.0,13.182229889060963,0.5293718023153132,0.5092829355302547,-0.0200888667850585,0.382283720302943,0.36660427827283,-0.01567944203011301,0.6102568312333924,0.5962925373333349,-0.01396429390005749,0.19614890769675927
03,03_night_grayscale_wide_substation_power_lines_45,False,000001.jpg,scale,40.0,26.364459778121955,0.5293718023153132,0.4976155997116692,-0.031756202603644035,0.382283720302943,0.361008213403144,-0.021275506899799013,0.6102568312333924,0.5890598532066206,-0.021196978026771784,0.2119728370949074
03,03_night_grayscale_wide_substation_power_lines_45,False,000005.jpg,translation,2.0,1.9999999999999898,0.6032281005839719,0.6060380155089347,0.002809914924962742,0.43701868457097565,0.44129215510733477,0.004273470536359125,0.6608687214347299,0.663342046531301,0.002473325096571166,0.18088333695023148
03,03_night_grayscale_wide_substation_power_lines_45,False,000005.jpg,translation,5.0,5.000000000000018,0.6032281005839719,0.6058907050995498,0.002662604515577871,0.43701868457097565,0.43502482379163526,-0.001993860779340384,0.6608687214347299,0.6617015584976838,0.000832837062953895,0.18050356264467593
03,03_night_grayscale_wide_substation_power_lines_45,False,000005.jpg,translation,10.0,9.999999999999991,0.6032281005839719,0.5920132134953886,-0.011214887088583314,0.43701868457097565,0.4308564283418711,-0.006162256229104546,0.6608687214347299,0.6537207138331621,-0.007148007601567752,0.1806640625
03,03_night_grayscale_wide_substation_power_lines_45,False,000005.jpg,translation,20.0,19.99999999999999,0.6032281005839719,0.5672538906159147,-0.035974209968057225,0.43701868457097565,0.4007838377892136,-0.03623484678176203,0.6608687214347299,0.6338229047552608,-0.027045816679469037,0.1802978515625
03,03_night_grayscale_wide_substation_power_lines_45,False,000005.jpg,translation,40.0,40.00000000000002,0.6032281005839719,0.46634525030490265,-0.13688285027906927,0.43701868457097565,0.32199149749314887,-0.11502718707782678,0.6608687214347299,0.5636704995257386,-0.0971982219089913,0.18052616825810186
03,03_night_grayscale_wide_substation_power_lines_45,False,000005.jpg,rotation,2.0,1.3182220353306504,0.6032281005839719,0.6085099171332063,0.0052818165492344304,0.43701868457097565,0.4363849965526903,-0.0006336880182853388,0.6608687214347299,0.6633512077047757,0.0024824862700458805,0.18064597800925927
03,03_night_grayscale_wide_substation_power_lines_45,False,000005.jpg,rotation,5.0,3.2955425726658034,0.6032281005839719,0.6055814209097096,0.002353320325737651,0.43701868457097565,0.43508702955778306,-0.0019316550131925903,0.6608687214347299,0.6615624678443006,0.0006937464095707613,0.18064145688657407
03,03_night_grayscale_wide_substation_power_lines_45,False,000005.jpg,rotation,10.0,6.590995748219982,0.6032281005839719,0.6067139834511927,0.0034858828672207354,0.43701868457097565,0.434498485479747,-0.0025201990912286365,0.6608687214347299,0.6619816130955332,0.0011128916608033057,0.1806346752025463
03,03_night_grayscale_wide_substation_power_lines_45,False,000005.jpg,rotation,20.0,13.181276334097184,0.6032281005839719,0.6059550814033824,0.002726980819410474,0.43701868457097565,0.43251450965340754,-0.0045041749175681045,0.6608687214347299,0.6611061681150431,0.0002374466803132247,0.1806369357638889
03,03_night_grayscale_wide_substation_power_lines_45,False,000005.jpg,rotation,40.0,26.35683183504002,0.6032281005839719,0.6108941241860717,0.007666023602099781,0.43701868457097565,0.45311750936915723,0.016098824798181588,0.6608687214347299,0.6687264394353252,0.007857718000595315,0.18064145688657407
03,03_night_grayscale_wide_substation_power_lines_45,False,000005.jpg,scale,2.0,1.3182229889061245,0.6032281005839719,0.6070173185007104,0.0037892179167384743,0.43701868457097565,0.43528220531122186,-0.001736479259753787,0.6608687214347299,0.6623292105781606,0.0014604891434307765,0.17900481047453703
03,03_night_grayscale_wide_substation_power_lines_45,False,000005.jpg,scale,5.0,3.2955574722652385,0.6032281005839719,0.6047010649712833,0.0014729643873113707,0.43701868457097565,0.4390215929096946,0.0020029083387189672,0.6608687214347299,0.6621059307130652,0.0012372092783353716,0.17671034071180555
03,03_night_grayscale_wide_substation_power_lines_45,False,000005.jpg,scale,10.0,6.5911149445304895,0.6032281005839719,0.6175404567612627,0.014312356177290764,0.43701868457097565,0.43816989795847044,0.0011512133874947983,0.6608687214347299,0.6683127028702489,0.007443981435519054,0.17313865379050927
03,03_night_grayscale_wide_substation_power_lines_45,False,000005.jpg,scale,20.0,13.182229889060963,0.6032281005839719,0.6315274676654457,0.028299367081473736,0.43701868457097565,0.44989627187605336,0.012877587305077709,0.6608687214347299,0.6782378018017361,0.01736908036700624,0.16587773075810186
03,03_night_grayscale_wide_substation_power_lines_45,False,000005.jpg,scale,40.0,26.364459778121944,0.6032281005839719,0.6551932107211668,0.05196511013719485,0.43701868457097565,0.4544144884275286,0.017395803856552927,0.6608687214347299,0.6912002274674656,0.03033150603273571,0.15204761646412038
03,03_night_grayscale_wide_substation_power_lines_45,False,000009.jpg,translation,2.0,1.9999999999999898,0.7987932966282076,0.7784094301932799,-0.020383866434927733,0.6362638531009341,0.5655884608472005,-0.07067539225373365,0.8084626115893374,0.7806018303084401,-0.027860781280897307,0.18088333695023148
03,03_night_grayscale_wide_substation_power_lines_45,False,000009.jpg,translation,5.0,5.000000000000018,0.7987932966282076,0.7203844135639745,-0.0784088830642331,0.6362638531009341,0.4969768656782699,-0.13928698742266427,0.8084626115893374,0.7344364232015548,-0.07402618838778263,0.18050356264467593
03,03_night_grayscale_wide_substation_power_lines_45,False,000009.jpg,translation,10.0,9.999999999999991,0.7987932966282076,0.6548298757423608,-0.1439634208858468,0.6362638531009341,0.4289583962273237,-0.20730545687361046,0.8084626115893374,0.6846545369280113,-0.12380807466132615,0.1806640625
03,03_night_grayscale_wide_substation_power_lines_45,False,000009.jpg,translation,20.0,19.99999999999999,0.7987932966282076,0.5742560159735159,-0.2245372806546917,0.6362638531009341,0.3714981166501226,-0.26476573645081153,0.8084626115893374,0.6300025371492886,-0.17846007444004885,0.1802978515625
03,03_night_grayscale_wide_substation_power_lines_45,False,000009.jpg,translation,40.0,40.00000000000002,0.7987932966282076,0.42156893090389774,-0.3772243657243099,0.6362638531009341,0.21240335944475364,-0.4238604936561805,0.8084626115893374,0.5138853053131373,-0.29457730627620016,0.18052616825810186
03,03_night_grayscale_wide_substation_power_lines_45,False,000009.jpg,rotation,2.0,1.3182220353306504,0.7987932966282076,0.7952454802153084,-0.0035478164128992518,0.6362638531009341,0.6233487681470677,-0.012915084953866396,0.8084626115893374,0.8034599321444211,-0.00500267944491628,0.18064597800925927
03,03_night_grayscale_wide_substation_power_lines_45,False,000009.jpg,rotation,5.0,3.2955425726658034,0.7987932966282076,0.7867129355281584,-0.012080361100049286,0.6362638531009341,0.6089577472643066,-0.027306105836627514,0.8084626115893374,0.7955959045801558,-0.012866707009181577,0.18064145688657407
03,03_night_grayscale_wide_substation_power_lines_45,False,000009.jpg,rotation,10.0,6.590995748219982,0.7987932966282076,0.7798206208591418,-0.018972675769065805,0.6362638531009341,0.5837829443315046,-0.05248090876942957,0.8084626115893374,0.7858560465124471,-0.022606565076890295,0.1806346752025463
03,03_night_grayscale_wide_substation_power_lines_45,False,000009.jpg,rotation,20.0,13.181276334097184,0.7987932966282076,0.750752841805637,-0.04804045482257069,0.6362638531009341,0.5455109019077358,-0.09075295119319837,0.8084626115893374,0.7617541463797524,-0.04670846520958505,0.1806369357638889
03,03_night_grayscale_wide_substation_power_lines_45,False,000009.jpg,rotation,40.0,26.35683183504002,0.7987932966282076,0.7111818013431696,-0.08761149528503809,0.6362638531009341,0.4863333714894241,-0.14993048161151,0.8084626115893374,0.7271742435439408,-0.08128836804539663,0.18064145688657407
03,03_night_grayscale_wide_substation_power_lines_45,False,000009.jpg,scale,2.0,1.3182229889061245,0.7987932966282076,0.7945894337923036,-0.004203862835904015,0.6362638531009341,0.6192038738517224,-0.017059979249211765,0.8084626115893374,0.8020956853590824,-0.006366926230255032,0.1821311668113426
03,03_night_grayscale_wide_substation_power_lines_45,False,000009.jpg,scale,5.0,3.295557472265234,0.7987932966282076,0.7834191165258076,-0.015374180102399992,0.6362638531009341,0.6002503420224107,-0.036013511078523464,0.8084626115893374,0.7917721437685066,-0.016690467820830834,0.1845770941840278
03,03_night_grayscale_wide_substation_power_lines_45,False,000009.jpg,scale,10.0,6.591114944530493,0.7987932966282076,0.7719854593843934,-0.026807837243814192,0.6362638531009341,0.5744770908855181,-0.06178676221541601,0.8084626115893374,0.7796120024135762,-0.02885060917576121,0.18820981626157407
03,03_night_grayscale_wide_substation_power_lines_45,False,000009.jpg,scale,20.0,13.182229889060963,0.7987932966282076,0.7298802160991406,-0.06891308052906708,0.6362638531009341,0.5342939840900264,-0.10196986901090777,0.8084626115893374,0.7485136040720768,-0.05994900751726062,0.19614890769675927
03,03_night_grayscale_wide_substation_power_lines_45,False,000009.jpg,scale,40.0,26.364459778121955,0.7987932966282076,0.688864412010419,-0.1099288846177886,0.6362638531009341,0.4836539150591178,-0.15260993804181633,0.8084626115893374,0.7153456847699889,-0.09311692681934847,0.2119728370949074
04,04_night_grayscale_zoom_substation_power_lines_45,True,000001.jpg,translation,2.0,1.9999999999999898,0.6695737088512016,0.6603327437891512,-0.00924096506205041,0.5087752768453443,0.5218183978979051,0.01304312105256078,0.711980673636937,0.7106209713690519,-0.0013597022678850657,0.8569561993634259
04,04_night_grayscale_zoom_substation_power_lines_45,True,000001.jpg,translation,5.0,5.000000000000018,0.6695737088512016,0.6378444733113275,-0.03172923553987406,0.5087752768453443,0.4846694571122552,-0.024105819733089118,0.711980673636937,0.6900896009337276,-0.021891072703209336,0.8568770797164352
04,04_night_grayscale_zoom_substation_power_lines_45,True,000001.jpg,translation,10.0,9.999999999999991,0.6695737088512016,0.5521740522166019,-0.11739965663459973,0.5087752768453443,0.43915450528009176,-0.06962077156525254,0.711980673636937,0.6358756524283239,-0.07610502120861307,0.8569064670138888
04,04_night_grayscale_zoom_substation_power_lines_45,True,000001.jpg,translation,20.0,19.99999999999999,0.6695737088512016,0.46364311041910644,-0.20593059843209516,0.5087752768453443,0.35969110615453753,-0.14908417069080676,0.711980673636937,0.5717443317481876,-0.14023634188874934,0.85687255859375
04,04_night_grayscale_zoom_substation_power_lines_45,True,000001.jpg,translation,40.0,40.00000000000002,0.6695737088512016,0.393693875189203,-0.2758798336619986,0.5087752768453443,0.29031710890773643,-0.21845816793760786,0.711980673636937,0.5194262148215356,-0.19255445881540134,0.8462275752314815
04,04_night_grayscale_zoom_substation_power_lines_45,True,000001.jpg,rotation,2.0,1.318222035330653,0.6695737088512016,0.6641469867625784,-0.005426722088623159,0.5087752768453443,0.5049075913385165,-0.0038676855068278115,0.711980673636937,0.7083003912159184,-0.003680282421018588,0.8568431712962963
04,04_night_grayscale_zoom_substation_power_lines_45,True,000001.jpg,rotation,5.0,3.2955425726658016,0.6695737088512016,0.6533546938852054,-0.016219014965996204,0.5087752768453443,0.5142367288590084,0.005461452013664103,0.711980673636937,0.7052365291573548,-0.006744144479582159,0.8565538194444444
04,04_night_grayscale_zoom_substation_power_lines_45,True,000001.jpg,rotation,10.0,6.590995748219984,0.6695737088512016,0.6102127351655561,-0.059360973685645524,0.5087752768453443,0.4806379102370123,-0.028137366608331993,0.711980673636937,0.675265845142031,-0.03671482849490593,0.8568499529803241
04,04_night_grayscale_zoom_substation_power_lines_45,True,000001.jpg,rotation,20.0,13.181276334097188,0.6695737088512016,0.5706736050712972,-0.09890010377990444,0.5087752768453443,0.4430851543339189,-0.06569012251142542,0.711980673636937,0.6461080911191284,-0.06587258251780859,0.8569177698206019
04,04_night_grayscale_zoom_substation_power_lines_45,True,000001.jpg,rotation,40.0,26.356831835040015,0.6695737088512016,0.5311129378586653,-0.1384607709925363,0.5087752768453443,0.41747123231132494,-0.09130404453401936,0.711980673636937,0.6199242770071639,-0.09205639662977305,0.8527651186342593
04,04_night_grayscale_zoom_substation_power_lines_45,True,000001.jpg,scale,2.0,1.3182229889061245,0.6695737088512016,0.6576179994464761,-0.011955709404725456,0.5087752768453443,0.4986265367210138,-0.01014874012433048,0.711980673636937,0.7034656339034915,-0.008515039733445473,0.8640543619791666
04,04_night_grayscale_zoom_substation_power_lines_45,True,000001.jpg,scale,5.0,3.295557472265234,0.6695737088512016,0.6429974122535262,-0.026576296597675353,0.5087752768453443,0.49835912135556654,-0.010416155489777756,0.711980673636937,0.6960884864656547,-0.015892187171282268,0.8748801902488426
04,04_night_grayscale_zoom_substation_power_lines_45,True,000001.jpg,scale,10.0,6.591114944530493,0.6695737088512016,0.6206660359511604,-0.048907672900041166,0.5087752768453443,0.5011992775816905,-0.007575999263653821,0.711980673636937,0.6856328373710028,-0.026347836265934177,0.8929827654803241
04,04_night_grayscale_zoom_substation_power_lines_45,True,000001.jpg,scale,20.0,13.182229889060963,0.6695737088512016,0.5896774459723995,-0.07989626287880214,0.5087752768453443,0.5019332007362256,-0.006842076109118689,0.711980673636937,0.6703220231702561,-0.041658650466680824,0.9273659035011574
04,04_night_grayscale_zoom_substation_power_lines_45,True,000001.jpg,scale,40.0,26.364459778121955,0.6695737088512016,0.510535892614215,-0.15903781623698665,0.5087752768453443,0.46305124294199645,-0.04572403390334784,0.711980673636937,0.6210307570426066,-0.09094991659433038,0.9712117513020834
04,04_night_grayscale_zoom_substation_power_lines_45,True,000005.jpg,translation,2.0,1.9999999999999898,0.6710677599355601,0.6211710287495724,-0.0498967311859877,0.5306106303674069,0.48809426676572937,-0.04251636360167749,0.7181865375596318,0.6826090810662185,-0.03557745649341326,0.8569313331886574
04,04_night_grayscale_zoom_substation_power_lines_45,True,000005.jpg,translation,5.0,5.000000000000018,0.6710677599355601,0.5609835301433314,-0.11008422979222876,0.5306106303674069,0.43878265633195285,-0.09182797403545401,0.7181865375596318,0.6401874291546539,-0.07799910840497792,0.8568883825231481
04,04_night_grayscale_zoom_substation_power_lines_45,True,000005.jpg,translation,10.0,9.999999999999991,0.6710677599355601,0.5113138594458081,-0.15975390048975202,0.5306106303674069,0.3856878383655251,-0.14492279200188174,0.7181865375596318,0.6020788893142853,-0.11610764824534647,0.8569200303819444
04,04_night_grayscale_zoom_substation_power_lines_45,True,000005.jpg,translation,20.0,19.99999999999999,0.6710677599355601,0.48415082080029154,-0.18691693913526858,0.5306106303674069,0.35236139499644886,-0.178249235370958,0.7181865375596318,0.5801657591492579,-0.13802077841037386,0.8558756510416666
04,04_night_grayscale_zoom_substation_power_lines_45,True,000005.jpg,translation,40.0,40.00000000000002,0.6710677599355601,0.4170758407537151,-0.253991919181845,0.5306106303674069,0.28306312293489166,-0.2475475074325152,0.7181865375596318,0.5293037011105804,-0.18888283644905135,0.8416386357060185
04,04_night_grayscale_zoom_substation_power_lines_45,True,000005.jpg,rotation,2.0,1.3182220353306504,0.6710677599355601,0.6892647066878829,0.01819694675232275,0.5306106303674069,0.5497636941985694,0.019153063831162553,0.7181865375596318,0.7320732768935838,0.013886739333952014,0.8568974247685185
04,04_night_grayscale_zoom_substation_power_lines_45,True,000005.jpg,rotation,5.0,3.2955425726658034,0.6710677599355601,0.6967693932967586,0.02570163336119846,0.5306106303674069,0.563204672117905,0.03259404175049818,0.7181865375596318,0.7391858646778555,0.02099932711822372,0.8569019458912037
04,04_night_grayscale_zoom_substation_power_lines_45,True,000005.jpg,rotation,10.0,6.590995748219982,0.6710677599355601,0.6616878927527529,-0.009379867182807256,0.5306106303674069,0.5488245519925746,0.018213921625167773,0.7181865375596318,0.7180500843745201,-0.00013645318511168458,0.8569200303819444
04,04_night_grayscale_zoom_substation_power_lines_45,True,000005.jpg,rotation,20.0,13.181276334097184,0.6710677599355601,0.6096591884235281,-0.06140857151203205,0.5306106303674069,0.48992787214664846,-0.0406827582207584,0.7181865375596318,0.6773115622484261,-0.04087497531120565,0.8555704752604166
04,04_night_grayscale_zoom_substation_power_lines_45,True,000005.jpg,rotation,40.0,26.35683183504002,0.6710677599355601,0.533669549235839,-0.13739821069972113,0.5306106303674069,0.4230960398658562,-0.10751459050155066,0.7181865375596318,0.6226087845843835,-0.09557775297524829,0.848388671875
04,04_night_grayscale_zoom_substation_power_lines_45,True,000005.jpg,scale,2.0,1.3182229889061245,0.6710677599355601,0.6780108338226447,0.006943073887084594,0.5306106303674069,0.5434091264311959,0.012798496063789022,0.7181865375596318,0.7248576985191213,0.006671160959489497,0.8497902199074074
04,04_night_grayscale_zoom_substation_power_lines_45,True,000005.jpg,scale,5.0,3.2955574722652385,0.6710677599355601,0.6796277750063004,0.008560015070740334,0.5306106303674069,0.5383296874042006,0.007719057036793764,0.7181865375596318,0.7243963093542004,0.006209771794568608,0.8391474971064815
04,04_night_grayscale_zoom_substation_power_lines_45,True,000005.jpg,scale,10.0,6.5911149445304895,0.6710677599355601,0.6538972781166378,-0.017170481818922334,0.5306106303674069,0.515157176989641,-0.015453453377765825,0.7181865375596318,0.7057379333057292,-0.012448604253902595,0.8215671115451388
04,04_night_grayscale_zoom_substation_power_lines_45,True,000005.jpg,scale,20.0,13.182229889060963,0.6710677599355601,0.5934450740179732,-0.07762268591758692,0.5306106303674069,0.48055182201087954,-0.05005880835652732,0.7181865375596318,0.6668604925117065,-0.05132604504792526,0.7869940863715278
04,04_night_grayscale_zoom_substation_power_lines_45,True,000005.jpg,scale,40.0,26.364459778121944,0.6710677599355601,0.5567553089911983,-0.11431245094436182,0.5306106303674069,0.43669039163779017,-0.09392023872961669,0.7181865375596318,0.6375502524050467,-0.0806362851545851,0.72003173828125
04,04_night_grayscale_zoom_substation_power_lines_45,True,000009.jpg,translation,2.0,1.9999999999999898,0.689446876747593,0.738536977978228,0.049090101230635064,0.5506467017479324,0.5896153366500643,0.03896863490213187,0.7323851138107795,0.7666723231516301,0.03428720934085061,0.8569313331886574
04,04_night_grayscale_zoom_substation_power_lines_45,True,000009.jpg,translation,5.0,5.000000000000018,0.689446876747593,0.6820725699550431,-0.007374306792549912,0.5506467017479324,0.5365289449682027,-0.014117756779729707,0.7323851138107795,0.7251685212195722,-0.007216592591207327,0.8568883825231481
04,04_night_grayscale_zoom_substation_power_lines_45,True,000009.jpg,translation,10.0,9.999999999999991,0.689446876747593,0.6054523375975093,-0.0839945391500837,0.5506467017479324,0.48706210135373784,-0.06358460039419456,0.7323851138107795,0.674491694137189,-0.05789341967359052,0.8569200303819444
04,04_night_grayscale_zoom_substation_power_lines_45,True,000009.jpg,translation,20.0,19.99999999999999,0.689446876747593,0.5214799242820268,-0.16796695246556614,0.5506467017479324,0.4021148351226279,-0.1485318666253045,0.7323851138107795,0.6112686709216704,-0.12111644288910917,0.8558756510416666
04,04_night_grayscale_zoom_substation_power_lines_45,True,000009.jpg,translation,40.0,40.00000000000002,0.689446876747593,0.45181061991912774,-0.23763625682846523,0.5506467017479324,0.326126493288927,-0.2245202084590054,0.7323851138107795,0.5574369332817957,-0.17494818052898387,0.8416386357060185
04,04_night_grayscale_zoom_substation_power_lines_45,True,000009.jpg,rotation,2.0,1.3182220353306504,0.689446876747593,0.6841609378994159,-0.005285938848177074,0.5506467017479324,0.5407468570114397,-0.009899844736492747,0.7323851138107795,0.7272671832025679,-0.0051179306082116405,0.8568974247685185
04,04_night_grayscale_zoom_substation_power_lines_45,True,000009.jpg,rotation,5.0,3.2955425726658034,0.689446876747593,0.6788206501012944,-0.010626226646298531,0.5506467017479324,0.5331685953525113,-0.017478106395421134,0.7323851138107795,0.7227024738887751,-0.009682639922004466,0.8569019458912037
04,04_night_grayscale_zoom_substation_power_lines_45,True,000009.jpg,rotation,10.0,6.590995748219982,0.689446876747593,0.6387758888840778,-0.050670987863515204,0.5506467017479324,0.5140070869265669,-0.03663961482136546,0.7323851138107795,0.6978897161736806,-0.03449539763709897,0.8569200303819444
04,04_night_grayscale_zoom_substation_power_lines_45,True,000009.jpg,rotation,20.0,13.181276334097184,0.689446876747593,0.5875676705188442,-0.1018792062287488,0.5506467017479324,0.48043108223199626,-0.07021561951593613,0.7323851138107795,0.6638916058174211,-0.0684935079933584,0.8555704752604166
04,04_night_grayscale_zoom_substation_power_lines_45,True,000009.jpg,rotation,40.0,26.35683183504002,0.689446876747593,0.5483310855243843,-0.14111579122320872,0.5506467017479324,0.44540527455277074,-0.10524142719516166,0.7323851138107795,0.6355168614003848,-0.09686825241039476,0.848388671875
04,04_night_grayscale_zoom_substation_power_lines_45,True,000009.jpg,scale,2.0,1.3182229889061245,0.689446876747593,0.6930103349095628,0.0035634581619697903,0.5506467017479324,0.5529061367754569,0.002259435027524459,0.7323851138107795,0.7347317016486457,0.002346587837866121,0.8640543619791666
04,04_night_grayscale_zoom_substation_power_lines_45,True,000009.jpg,scale,5.0,3.295557472265234,0.689446876747593,0.727126652093805,0.03767977534621203,0.5506467017479324,0.5637882501114218,0.013141548363489353,0.7323851138107795,0.7545103885747579,0.02212527476397841,0.8748801902488426
04,04_night_grayscale_zoom_substation_power_lines_45,True,000009.jpg,scale,10.0,6.591114944530493,0.689446876747593,0.6998504472990631,0.01040357055147012,0.5506467017479324,0.5584096304902124,0.0077629287422800175,0.7323851138107795,0.7395276312720847,0.00714251746130512,0.8929827654803241
04,04_night_grayscale_zoom_substation_power_lines_45,True,000009.jpg,scale,20.0,13.182229889060963,0.689446876747593,0.6297719518298311,-0.05967492491776183,0.5506467017479324,0.5015296388081977,-0.049117062939734724,0.7323851138107795,0.6902683856169649,-0.04211672819381462,0.9273659035011574
04,04_night_grayscale_zoom_substation_power_lines_45,True,000009.jpg,scale,40.0,26.364459778121955,0.689446876747593,0.5554620154516018,-0.1339848612959912,0.5506467017479324,0.4592344204728395,-0.09141228127509288,0.7323851138107795,0.6425396128440108,-0.08984550096676869,0.9712117513020834
05,05_night_pseudocolor_solar_panels_1315,True,000001.jpg,translation,2.0,1.9999999999999898,0.24163262024671076,0.262695957996084,0.021063337749373218,0.09884576993683235,0.09476881999902251,-0.00407694993780984,0.39552775260756345,0.4050401839977976,0.009512431390234166,0.21147777416087962
05,05_night_pseudocolor_solar_panels_1315,True,000001.jpg,translation,5.0,5.000000000000018,0.24163262024671076,0.2121466318735709,-0.029485988373139843,0.09884576993683235,0.06686518113016572,-0.03198058880666663,0.39552775260756345,0.37278961121932686,-0.0227381413882366,0.21140317563657407
05,05_night_pseudocolor_solar_panels_1315,True,000001.jpg,translation,10.0,9.999999999999991,0.24163262024671076,0.18488010747581116,-0.0567525127708996,0.09884576993683235,0.06275358431697522,-0.03609218561985712,0.39552775260756345,0.3581284498171494,-0.037399302790414035,0.21144838686342593
05,05_night_pseudocolor_solar_panels_1315,True,000001.jpg,translation,20.0,19.99999999999999,0.24163262024671076,0.18172926202861703,-0.05990335821809373,0.09884576993683235,0.012270261495128285,-0.08657550844170406,0.39552775260756345,0.3439321963880906,-0.05159555621947287,0.2112969292534722
05,05_night_pseudocolor_solar_panels_1315,True,000001.jpg,translation,40.0,40.00000000000002,0.24163262024671076,0.13060500172824158,-0.11102761851846918,0.09884576993683235,0.02251179879494381,-0.07633397114188853,0.39552775260756345,0.32093045056285674,-0.07459730204470671,0.21140995732060186
05,05_night_pseudocolor_solar_panels_1315,True,000001.jpg,rotation,2.0,1.3182220353306504,0.24163262024671076,0.23360859269223863,-0.008024027554472124,0.09884576993683235,0.09436315443622971,-0.004482615500602638,0.39552775260756345,0.3903950849551768,-0.00513266765238668,0.2114935980902778
05,05_night_pseudocolor_solar_panels_1315,True,000001.jpg,rotation,5.0,3.2955425726658034,0.24163262024671076,0.2393744172739604,-0.002258202972750367,0.09884576993683235,0.0936708315881762,-0.0051749383486561495,0.39552775260756345,0.39310491653402424,-0.002422836073539214,0.21137378833912038
05,05_night_pseudocolor_solar_panels_1315,True,000001.jpg,rotation,10.0,6.590995748219982,0.24163262024671076,0.23302471173132996,-0.008607908515380791,0.09884576993683235,0.08873342303043205,-0.010112346906400296,0.39552775260756345,0.388695711623273,-0.006832040984290466,0.21141447844328703
05,05_night_pseudocolor_solar_panels_1315,True,000001.jpg,rotation,20.0,13.181276334097184,0.24163262024671076,0.20718432389987748,-0.034448296346833274,0.09884576993683235,0.07504988093696925,-0.023795888999863096,0.39552775260756345,0.3723546321841811,-0.023173120423382376,0.21138961226851852
05,05_night_pseudocolor_solar_panels_1315,True,000001.jpg,rotation,40.0,26.35683183504002,0.24163262024671076,0.20026522840052177,-0.04136739184618898,0.09884576993683235,0.05047986432163649,-0.04836590561519586,0.39552775260756345,0.36275258028067,-0.032775172326893476,0.21140543619791666
05,05_night_pseudocolor_solar_panels_1315,True,000001.jpg,scale,2.0,1.3182229889061245,0.24163262024671076,0.24325769354787352,0.001625073301162766,0.09884576993683235,0.09942260908388258,0.0005768391470502288,0.39552775260756345,0.3964844990449074,0.0009567464373439472,0.20957890263310186
05,05_night_pseudocolor_solar_panels_1315,True,000001.jpg,scale,5.0,3.2955574722652385,0.24163262024671076,0.26029599330925646,0.0186633730625457,0.09884576993683235,0.09742901610283133,-0.0014167538340010138,0.39552775260756345,0.40450525068033605,0.008977498072772594,0.2070380316840278
05,05_night_pseudocolor_solar_panels_1315,True,000001.jpg,scale,10.0,6.5911149445304895,0.24163262024671076,0.24387047199069514,0.002237851743984387,0.09884576993683235,0.09289962549386518,-0.005946144442967163,0.39552775260756345,0.39516014236881386,-0.00036761023874959387,0.20255307798032407
05,05_night_pseudocolor_solar_panels_1315,True,000001.jpg,scale,20.0,13.182229889060963,0.24163262024671076,0.23184552140779308,-0.00978709883891768,0.09884576993683235,0.08350631363417216,-0.01533945630266019,0.39552775260756345,0.3867993391124396,-0.008728413495123877,0.19414152922453703
05,05_night_pseudocolor_solar_panels_1315,True,000001.jpg,scale,40.0,26.364459778121944,0.24163262024671076,0.20277229688644005,-0.038860323360270704,0.09884576993683235,0.02872895780872159,-0.07011681212811076,0.39552775260756345,0.3585683878954004,-0.036959364712163045,0.1774879738136574
05,05_night_pseudocolor_solar_panels_1315,True,000120.jpg,translation,2.0,1.9999999999999898,0.021994888767760682,0.017950043991004683,-0.004044844776755999,-0.020308799432256813,-0.023302575106468975,-0.0029937756742121624,0.25592024452581613,0.2531493782188851,-0.002770866306931019,0.21150716145833334
05,05_night_pseudocolor_solar_panels_1315,True,000120.jpg,translation,5.0,5.000000000000018,0.021994888767760682,0.017890544075236044,-0.004104344692524638,-0.020308799432256813,-0.028078307881226946,-0.007769508448970133,0.25592024452581613,0.2519256950673113,-0.003994549458504859,0.2113037109375
05,05_night_pseudocolor_solar_panels_1315,True,000120.jpg,translation,10.0,9.999999999999991,0.021994888767760682,0.012984584447253061,-0.00901030432050762,-0.020308799432256813,-0.04563075338566276,-0.02532195395340595,0.25592024452581613,0.24508460387721082,-0.010835640648605316,0.21148681640625
05,05_night_pseudocolor_solar_panels_1315,True,000120.jpg,translation,20.0,19.99999999999999,0.021994888767760682,0.019053958379977854,-0.002940930387782828,-0.020308799432256813,-0.04959348528051645,-0.029284685848259637,0.25592024452581613,0.24712860786985982,-0.008791636655956309,0.21138509114583334
05,05_night_pseudocolor_solar_panels_1315,True,000120.jpg,translation,40.0,40.00000000000002,0.021994888767760682,0.011782742038905194,-0.010212146728855488,-0.020308799432256813,-0.025498210776618777,-0.005189411344361964,0.25592024452581613,0.2495168183252979,-0.006403426200518231,0.21129014756944445
05,05_night_pseudocolor_solar_panels_1315,True,000120.jpg,rotation,2.0,1.3182220353306504,0.021994888767760682,0.022916056712638747,0.0009211679448780652,-0.020308799432256813,-0.0235354355371355,-0.003226636104878687,0.25592024452581613,0.2555741694720355,-0.00034607505378064785,0.2114935980902778
05,05_night_pseudocolor_solar_panels_1315,True,000120.jpg,rotation,5.0,3.2955425726658034,0.021994888767760682,0.02102870237474898,-0.0009661863930117004,-0.020308799432256813,-0.019212709942569316,0.001096089489687497,0.25592024452581613,0.2557111737017322,-0.00020907082408394562,0.21137378833912038
05,05_night_pseudocolor_solar_panels_1315,True,000120.jpg,rotation,10.0,6.590995748219982,0.021994888767760682,0.02550082846894422,0.003505939701183538,-0.020308799432256813,-0.003807470678643683,0.01650132875361313,0.25592024452581613,0.26179854656481116,0.005878302038995031,0.21141447844328703
05,05_night_pseudocolor_solar_panels_1315,True,000120.jpg,rotation,20.0,13.181276334097184,0.021994888767760682,0.025091432386505342,0.00309654361874466,-0.020308799432256813,0.00509432075555576,0.025403120187812572,0.25592024452581613,0.26381929638214163,0.0078990518563255,0.21138961226851852
05,05_night_pseudocolor_solar_panels_1315,True,000120.jpg,rotation,40.0,26.35683183504002,0.021994888767760682,0.026332733486321834,0.004337844718561152,-0.020308799432256813,0.05218107145465829,0.07248987088691511,0.25592024452581613,0.27621163460682546,0.02029139008100933,0.21140543619791666
05,05_night_pseudocolor_solar_panels_1315,True,000120.jpg,scale,2.0,1.3182229889061245,0.021994888767760682,0.02214855692020494,0.00015366815244425777,-0.020308799432256813,-0.022643141599488374,-0.0023343421672315616,0.25592024452581613,0.25541349306023037,-0.0005067514655857641,0.20957890263310186
05,05_night_pseudocolor_solar_panels_1315,True,000120.jpg,scale,5.0,3.2955574722652385,0.021994888767760682,0.023243321668426194,0.0012484329006655116,-0.020308799432256813,-0.02065620745914848,-0.0003474080268916664,0.25592024452581613,0.256457608969426,0.0005373644436098557,0.2070380316840278
05,05_night_pseudocolor_solar_panels_1315,True,000120.jpg,scale,10.0,6.5911149445304895,0.021994888767760682,0.020560814695114196,-0.0014340740726464865,-0.020308799432256813,-0.01829343318261247,0.002015366249644341,0.25592024452581613,0.255707049051904,-0.00021319547391213112,0.20255307798032407
05,05_night_pseudocolor_solar_panels_1315,True,000120.jpg,scale,20.0,13.182229889060963,0.021994888767760682,0.019279148656645814,-0.0027157401111148685,-0.020308799432256813,-0.024227556596835724,-0.003918757164578911,0.25592024452581613,0.253582685179114,-0.002337559346702156,0.19414152922453703
05,05_night_pseudocolor_solar_panels_1315,True,000120.jpg,scale,40.0,26.364459778121944,0.021994888767760682,0.01865358172771943,-0.0033413070400412533,-0.020308799432256813,-0.041660738060307824,-0.02135193862805101,0.25592024452581613,0.24891160634878276,-0.007008638177033372,0.1774879738136574
05,05_night_pseudocolor_solar_panels_1315,True,000240.jpg,translation,2.0,1.9999999999999898,0.12190628638105841,0.10722977908378571,-0.014676507297272698,0.10251998924075072,0.10370824411808291,0.0011882548773321927,0.33658314050071686,0.3295419505714136,-0.007041189929303249,0.21150716145833334
05,05_night_pseudocolor_solar_panels_1315,True,000240.jpg,translation,5.0,5.000000000000018,0.12190628638105841,0.09685812171890237,-0.025048164662156036,0.10251998924075072,0.08288897839006833,-0.01963101085068239,0.33658314050071686,0.3191513054569683,-0.017431835043748567,0.2113037109375
05,05_night_pseudocolor_solar_panels_1315,True,000240.jpg,translation,10.0,9.999999999999991,0.12190628638105841,0.10367907038311834,-0.01822721599794007,0.10251998924075072,0.0647865825134863,-0.03773340672726441,0.33658314050071686,0.31803618081993074,-0.018546959680786124,0.21148681640625
05,05_night_pseudocolor_solar_panels_1315,True,000240.jpg,translation,20.0,19.99999999999999,0.12190628638105841,0.07778108275345486,-0.044125203627603554,0.10251998924075072,0.03901684289128319,-0.06350314634946752,0.33658314050071686,0.2986447520995482,-0.03793838840116864,0.21138509114583334
05,05_night_pseudocolor_solar_panels_1315,True,000240.jpg,translation,40.0,40.00000000000002,0.12190628638105841,0.10086114644232208,-0.02104513993873633,0.10251998924075072,0.04384603863015905,-0.05867395061059167,0.33658314050071686,0.3113920828787008,-0.025191057622016066,0.21129014756944445
05,05_night_pseudocolor_solar_panels_1315,True,000240.jpg,rotation,2.0,1.318222035330653,0.12190628638105841,0.11698865195756716,-0.004917634423491246,0.10251998924075072,0.10215025842552906,-0.00036973081522165274,0.33658314050071686,0.33403189058516586,-0.0025512499155510016,0.21144386574074073
05,05_night_pseudocolor_solar_panels_1315,True,000240.jpg,rotation,5.0,3.2955425726658016,0.12190628638105841,0.11581114422364923,-0.006095142157409181,0.10251998924075072,0.10629025140655525,0.003770262165804533,0.33658314050071686,0.33447813496346346,-0.0021050055372534016,0.21134892216435186
05,05_night_pseudocolor_solar_panels_1315,True,000240.jpg,rotation,10.0,6.590995748219984,0.12190628638105841,0.10992976156528637,-0.011976524815772036,0.10251998924075072,0.10907617567233202,0.006556186431581304,0.33658314050071686,0.33223392470072616,-0.004349215799990702,0.21138961226851852
05,05_night_pseudocolor_solar_panels_1315,True,000240.jpg,rotation,20.0,13.181276334097188,0.12190628638105841,0.1087335060398976,-0.013172780341160803,0.10251998924075072,0.09673384494433782,-0.005786144296412901,0.33658314050071686,0.32855021425603326,-0.008032926244683603,0.21140317563657407
05,05_night_pseudocolor_solar_panels_1315,True,000240.jpg,rotation,40.0,26.356831835040015,0.12190628638105841,0.10470917976394609,-0.017197106617112323,0.10251998924075072,0.07775510971049095,-0.02476487953025977,0.33658314050071686,0.3217933673095958,-0.01478977319112107,0.2113941333912037
05,05_night_pseudocolor_solar_panels_1315,True,000240.jpg,scale,2.0,1.3182229889061245,0.12190628638105841,0.11923353493899197,-0.00267275144206644,0.10251998924075072,0.10540345251689229,0.0028834632761415707,0.33658314050071686,0.33596763059871904,-0.0006155099019978238,0.20957890263310186
05,05_night_pseudocolor_solar_panels_1315,True,000240.jpg,scale,5.0,3.2955574722652385,0.12190628638105841,0.11486548759752746,-0.007040798783530949,0.10251998924075072,0.10496663726786301,0.0024466480271122942,0.33658314050071686,0.3336744031157295,-0.00290873738498737,0.2070380316840278
05,05_night_pseudocolor_solar_panels_1315,True,000240.jpg,scale,10.0,6.5911149445304895,0.12190628638105841,0.11726079844636943,-0.004645487934688983,0.10251998924075072,0.0966804734017157,-0.005839515839035012,0.33658314050071686,0.3328005175736136,-0.0037826229271032408,0.20255307798032407
05,05_night_pseudocolor_solar_panels_1315,True,000240.jpg,scale,20.0,13.182229889060963,0.12190628638105841,0.10761668125614159,-0.014289605124916824,0.10251998924075072,0.10018073667433741,-0.002339252566413305,0.33658314050071686,0.32885352479665514,-0.007729615704061721,0.19414152922453703
05,05_night_pseudocolor_solar_panels_1315,True,000240.jpg,scale,40.0,26.364459778121944,0.12190628638105841,0.09203842242218555,-0.029867863958872864,0.10251998924075072,0.10312986416887907,0.0006098749281283483,0.33658314050071686,0.32180167725331255,-0.014781463247404314,0.1774879738136574
06,06_day_pseudocolor_solar_panels_1037,True,000001.jpg,translation,2.0,1.9999999999999898,0.5844911295648284,0.6222176784075696,0.03772654884274118,0.38821163734811825,0.4354514140325647,0.047239776684446455,0.6392984741194438,0.6699716927119259,0.030673218592482066,0.21248372395833334
06,06_day_pseudocolor_solar_panels_1037,True,000001.jpg,translation,5.0,5.000000000000018,0.5844911295648284,0.4828807360652246,-0.10161039349960382,0.38821163734811825,0.34920992870116185,-0.0390017086469564,0.6392984741194438,0.5787428502079027,-0.06055562391154112,0.21246337890625
06,06_day_pseudocolor_solar_panels_1037,True,000001.jpg,translation,10.0,9.999999999999991,0.5844911295648284,0.4401289117193811,-0.14436221784544728,0.38821163734811825,0.21787802745847032,-0.17033360988964794,0.6392984741194438,0.5245339627243082,-0.11476451139513566,0.21244755497685186
06,06_day_pseudocolor_solar_panels_1037,True,000001.jpg,translation,20.0,19.99999999999999,0.5844911295648284,0.39254991423572905,-0.19194121532909936,0.38821163734811825,0.18063724750256435,-0.2075743898455539,0.6392984741194438,0.4914342689935056,-0.14786420512593823,0.21248824508101852
06,06_day_pseudocolor_solar_panels_1037,True,000001.jpg,translation,40.0,40.00000000000002,0.5844911295648284,0.3565445035041977,-0.2279466260606307,0.38821163734811825,0.13666921678900007,-0.2515424205591182,0.6392984741194438,0.4624395559493488,-0.17685891817009503,0.21245885778356483
06,06_day_pseudocolor_solar_panels_1037,True,000001.jpg,rotation,2.0,1.3182220353306504,0.5844911295648284,0.5853559636470334,0.0008648340822049461,0.38821163734811825,0.39434814456883105,0.006136507220712795,0.6392984741194438,0.6412650179657244,0.0019665438462805884,0.21254701967592593
06,06_day_pseudocolor_solar_panels_1037,True,000001.jpg,rotation,5.0,3.2955425726658034,0.5844911295648284,0.5674350421929506,-0.017056087371877804,0.38821163734811825,0.38724710401386025,-0.0009645333342579998,0.6392984741194438,0.6305292970999403,-0.008769177019503527,0.2125311957465278
06,06_day_pseudocolor_solar_panels_1037,True,000001.jpg,rotation,10.0,6.590995748219982,0.5844911295648284,0.5268179125138488,-0.05767321705097961,0.38821163734811825,0.3106120024022903,-0.07759963494582794,0.6392984741194438,0.591061956857497,-0.04823651726194689,0.21250632957175927
06,06_day_pseudocolor_solar_panels_1037,True,000001.jpg,rotation,20.0,13.181276334097184,0.5844911295648284,0.48761849148016856,-0.09687263808465985,0.38821163734811825,0.28188000837170546,-0.1063316289764128,0.6392984741194438,0.5642792478330106,-0.0750192262864332,0.21248598451967593
06,06_day_pseudocolor_solar_panels_1037,True,000001.jpg,rotation,40.0,26.35683183504002,0.5844911295648284,0.4435053828352953,-0.14098574672953312,0.38821163734811825,0.23939473612100332,-0.14881690122711494,0.6392984741194438,0.5316013754478985,-0.10769709867154531,0.2124927662037037
06,06_day_pseudocolor_solar_panels_1037,True,000001.jpg,scale,2.0,1.3182229889061245,0.5844911295648284,0.588248393286034,0.0037572637212055504,0.38821163734811825,0.38143848196518493,-0.006773155382933327,0.6392984741194438,0.6394838171343131,0.00018534301486927696,0.2106956199363426
06,06_day_pseudocolor_solar_panels_1037,True,000001.jpg,scale,5.0,3.2955574722652385,0.5844911295648284,0.548501885538105,-0.03598924402672343,0.38821163734811825,0.3718013231329897,-0.016410314215128563,0.6392984741194438,0.6172012735522999,-0.022097200567143926,0.20811179832175927
06,06_day_pseudocolor_solar_panels_1037,True,000001.jpg,scale,10.0,6.5911149445304895,0.5844911295648284,0.5320293197685801,-0.05246180979624826,0.38821163734811825,0.37124808017044636,-0.016963557177671895,0.6392984741194438,0.6088266799269016,-0.0304717941925422,0.2036155418113426
06,06_day_pseudocolor_solar_panels_1037,True,000001.jpg,scale,20.0,13.182229889060963,0.5844911295648284,0.4851814287847125,-0.09930970078011592,0.38821163734811825,0.34644031994843427,-0.04177131739968398,0.6392984741194438,0.5792007943794648,-0.06009767973997904,0.1951610423900463
06,06_day_pseudocolor_solar_panels_1037,True,000001.jpg,scale,40.0,26.364459778121944,0.5844911295648284,0.45000741960086,-0.1344837099639684,0.38821163734811825,0.2346058517211914,-0.15360578562692687,0.6392984741194438,0.5336551727307278,-0.10564330138871603,0.17852783203125
06,06_day_pseudocolor_solar_panels_1037,True,000095.jpg,translation,2.0,1.9999999999999898,0.4167964677329589,0.40573339765794997,-0.011063070075008952,0.2375221100474904,0.21892695490762723,-0.01859515513986318,0.5177787613783521,0.5075984375558817,-0.01018032382247036,0.21248372395833334
06,06_day_pseudocolor_solar_panels_1037,True,000095.jpg,translation,5.0,5.000000000000018,0.4167964677329589,0.392931673398305,-0.023864794334653938,0.2375221100474904,0.16736803666747224,-0.07015407338001817,0.5177787613783521,0.4883078458660206,-0.029470915512331497,0.21246337890625
06,06_day_pseudocolor_solar_panels_1037,True,000095.jpg,translation,10.0,9.999999999999991,0.4167964677329589,0.39940349577430917,-0.01739297195864975,0.2375221100474904,0.14168298698065626,-0.09583912306683415,0.5177787613783521,0.4851224946323186,-0.0326562667460335,0.21244755497685186
06,06_day_pseudocolor_solar_panels_1037,True,000095.jpg,translation,20.0,19.99999999999999,0.4167964677329589,0.4004848668687691,-0.016311600864189812,0.2375221100474904,0.13426106512845376,-0.10326104491903665,0.5177787613783521,0.48380769971649795,-0.03397106166185415,0.21248824508101852
06,06_day_pseudocolor_solar_panels_1037,True,000095.jpg,translation,40.0,40.00000000000002,0.4167964677329589,0.34898107094695835,-0.06781539678600057,0.2375221100474904,0.059132970357430266,-0.17838913969006015,0.5177787613783521,0.43927377806283674,-0.07850498331551536,0.21245885778356483
06,06_day_pseudocolor_solar_panels_1037,True,000095.jpg,rotation,2.0,1.3182220353306504,0.4167964677329589,0.4150695471252178,-0.0017269206077411003,0.2375221100474904,0.2420103629925938,0.004488252945103383,0.5177787613783521,0.5180373643107574,0.0002586029324053163,0.21254701967592593
06,06_day_pseudocolor_solar_panels_1037,True,000095.jpg,rotation,5.0,3.2955425726658034,0.4167964677329589,0.4145253905887657,-0.002271077144193223,0.2375221100474904,0.2519867432649185,0.01446463321742808,0.5177787613783521,0.5202593811106124,0.002480619732260325,0.2125311957465278
06,06_day_pseudocolor_solar_panels_1037,True,000095.jpg,rotation,10.0,6.590995748219982,0.4167964677329589,0.4223021792519178,0.0055057115189589,0.2375221100474904,0.25484155593310337,0.01731944588561296,0.5177787613783521,0.5248614786092347,0.007082717230882607,0.21250632957175927
06,06_day_pseudocolor_solar_panels_1037,True,000095.jpg,rotation,20.0,13.181276334097184,0.4167964677329589,0.4250362539177621,0.0082397861848032,0.2375221100474904,0.23976905529952844,0.0022469452520380295,0.5177787613783521,0.5224603907837632,0.0046816294054110585,0.21248598451967593
06,06_day_pseudocolor_solar_panels_1037,True,000095.jpg,rotation,40.0,26.35683183504002,0.4167964677329589,0.40655235730170614,-0.010244110431252784,0.2375221100474904,0.186786250640769,-0.0507358594067214,0.5177787613783521,0.4999727413110453,-0.017806020067306805,0.2124927662037037
06,06_day_pseudocolor_solar_panels_1037,True,000095.jpg,scale,2.0,1.3182229889061245,0.4167964677329589,0.4102627732902962,-0.006533694442662719,0.2375221100474904,0.24716459851922135,0.009642488471730937,0.5177787613783521,0.5169225362749534,-0.0008562251033986668,0.2106956199363426
06,06_day_pseudocolor_solar_panels_1037,True,000095.jpg,scale,5.0,3.2955574722652385,0.4167964677329589,0.4145051350570217,-0.00229133267593723,0.2375221100474904,0.28346345375516624,0.04594134370767583,0.5177787613783521,0.5281184309673024,0.010339669588950273,0.20811179832175927
06,06_day_pseudocolor_solar_panels_1037,True,000095.jpg,scale,10.0,6.5911149445304895,0.4167964677329589,0.42362402476241706,0.006827557029458142,0.2375221100474904,0.3193458715922671,0.08182376154477672,0.5177787613783521,0.5416484802792753,0.023869718900923154,0.2036155418113426
06,06_day_pseudocolor_solar_panels_1037,True,000095.jpg,scale,20.0,13.182229889060963,0.4167964677329589,0.43102911587806164,0.014232648145102722,0.2375221100474904,0.2917669659226055,0.05424485587511507,0.5177787613783521,0.5384562994196822,0.0206775380413301,0.1951610423900463
06,06_day_pseudocolor_solar_panels_1037,True,000095.jpg,scale,40.0,26.364459778121944,0.4167964677329589,0.4111992617027206,-0.005597206030238333,0.2375221100474904,0.18851876654911617,-0.049003343498374236,0.5177787613783521,0.5027293224886393,-0.015049438889712774,0.17852783203125
06,06_day_pseudocolor_solar_panels_1037,True,000189.jpg,translation,2.0,1.9999999999999898,0.5522215426737835,0.5302321021378905,-0.021989440535893023,0.023524893843230123,0.05660030398126301,0.03307541013803289,0.5319919947976993,0.529266127064261,-0.002725867733438303,0.2124317310474537
06,06_day_pseudocolor_solar_panels_1037,True,000189.jpg,translation,5.0,5.000000000000018,0.5522215426737835,0.48677861229192165,-0.06544293038186189,0.023524893843230123,0.01227317151614623,-0.011251722327083893,0.5319919947976993,0.49645759902499736,-0.035534395772701954,0.21251989293981483
06,06_day_pseudocolor_solar_panels_1037,True,000189.jpg,translation,10.0,9.999999999999991,0.5522215426737835,0.5041372392910187,-0.048084303382764815,0.023524893843230123,0.027863966873292997,0.004339073030062875,0.5319919947976993,0.5090346113638327,-0.022957383433866663,0.21244529441550927
06,06_day_pseudocolor_solar_panels_1037,True,000189.jpg,translation,20.0,19.99999999999999,0.5522215426737835,0.5149244852161046,-0.03729705745767897,0.023524893843230123,0.2038662377909468,0.1803413439477167,0.5319919947976993,0.558428802055789,0.026436807258089723,0.21254249855324073
06,06_day_pseudocolor_solar_panels_1037,True,000189.jpg,translation,40.0,40.00000000000002,0.5522215426737835,0.5404566353210223,-0.011764907352761256,0.023524893843230123,0.015137811810997473,-0.00838708203223265,0.5319919947976993,0.5240127706132605,-0.00797922418443886,0.21251537181712962
06,06_day_pseudocolor_solar_panels_1037,True,000189.jpg,rotation,2.0,1.318222035330653,0.5522215426737835,0.5496855295620339,-0.0025360131117496687,0.023524893843230123,0.02471975385575189,0.0011948600125217673,0.5319919947976993,0.5310227032449549,-0.000969291552744389,0.21248598451967593
06,06_day_pseudocolor_solar_panels_1037,True,000189.jpg,rotation,5.0,3.2955425726658016,0.5522215426737835,0.5496637115888644,-0.0025578310849191377,0.023524893843230123,0.029025324697157143,0.00550043085392702,0.5319919947976993,0.5320881869687215,9.619217102219135e-05,0.21268717447916666
06,06_day_pseudocolor_solar_panels_1037,True,000189.jpg,rotation,10.0,6.590995748219984,0.5522215426737835,0.5417506332583748,-0.010470909415408736,0.023524893843230123,0.026658079411977093,0.00313318556874697,0.5319919947976993,0.5275398364821817,-0.004452158315517596,0.21248146339699073
06,06_day_pseudocolor_solar_panels_1037,True,000189.jpg,rotation,20.0,13.181276334097188,0.5522215426737835,0.5278952776806728,-0.024326264993110747,0.023524893843230123,0.02562208981466011,0.002097195971429988,0.5319919947976993,0.5203531612940014,-0.011638833503697876,0.21248824508101852
06,06_day_pseudocolor_solar_panels_1037,True,000189.jpg,rotation,40.0,26.356831835040015,0.5522215426737835,0.5132268937018817,-0.03899464897190186,0.023524893843230123,0.004005568697526991,-0.01951932514570313,0.5319919947976993,0.5076148390253226,-0.024377155772376757,0.21248372395833334
06,06_day_pseudocolor_solar_panels_1037,True,000189.jpg,scale,2.0,1.3182229889061245,0.5522215426737835,0.5540494442693743,0.001827901595590764,0.023524893843230123,0.03169834439291166,0.008173450549681535,0.5319919947976993,0.5349493082329151,0.0029573134352157693,0.2106956199363426
06,06_day_pseudocolor_solar_panels_1037,True,000189.jpg,scale,5.0,3.2955574722652385,0.5522215426737835,0.5472712391917087,-0.004950303482074814,0.023524893843230123,0.0583921571789941,0.034867263335763975,0.5319919947976993,0.5382336588906029,0.006241664092903609,0.20811179832175927
06,06_day_pseudocolor_solar_panels_1037,True,000189.jpg,scale,10.0,6.5911149445304895,0.5522215426737835,0.5465294488981423,-0.005692093775641283,0.023524893843230123,0.04687923070625228,0.023354336863022157,0.5319919947976993,0.5349845321256341,0.0029925373279348078,0.2036155418113426
06,06_day_pseudocolor_solar_panels_1037,True,000189.jpg,scale,20.0,13.182229889060963,0.5522215426737835,0.5288873925433514,-0.023334150130432163,0.023524893843230123,-0.012595840696494888,-0.03612073453972501,0.5319919947976993,0.5112947360975519,-0.02069725870014738,0.1951610423900463
06,06_day_pseudocolor_solar_panels_1037,True,000189.jpg,scale,40.0,26.364459778121944,0.5522215426737835,0.5733428860328745,0.021121343359090994,0.023524893843230123,0.002365249018934559,-0.021159644824295564,0.5319919947976993,0.5372627552711708,0.005270760473471525,0.17852783203125
07,07_day_grayscale_transmission_tower_102,True,000001.jpg,translation,2.0,1.999999999999984,0.49906929796362853,0.4712263225690343,-0.027842975394594238,0.21588592077699653,0.1672472788759936,-0.04863864190100292,0.5535061291760635,0.5274249810035155,-0.02608114817254792,0.6449622636959876
07,07_day_grayscale_transmission_tower_102,True,000001.jpg,translation,5.0,5.000000000000016,0.49906929796362853,0.4483206540479561,-0.05074864391567241,0.21588592077699653,0.12685471711860127,-0.08903120365839526,0.5535061291760635,0.5058740063036283,-0.04763212287243512,0.6448296440972222
07,07_day_grayscale_transmission_tower_102,True,000001.jpg,translation,10.0,9.999999999999988,0.49906929796362853,0.4147934447717232,-0.08427585319190534,0.21588592077699653,0.0775170873589726,-0.13836883341802392,0.5535061291760635,0.47677599422560474,-0.07673013495045872,0.6450255594135802
07,07_day_grayscale_transmission_tower_102,True,000001.jpg,translation,20.0,19.999999999999996,0.49906929796362853,0.3671935260343437,-0.13187577192928485,0.21588592077699653,0.03929945619997826,-0.17658646457701827,0.5535061291760635,0.44342162706716637,-0.11008450210889709,0.6445433063271605
07,07_day_grayscale_transmission_tower_102,True,000001.jpg,translation,40.0,40.000000000000014,0.49906929796362853,0.31846879368346676,-0.18060050428016178,0.21588592077699653,0.018851063668824785,-0.19703485710817176,0.5535061291760635,0.4139471627589396,-0.13955896641712384,0.6289906442901234
07,07_day_grayscale_transmission_tower_102,True,000001.jpg,rotation,2.0,1.30439071719688,0.49906929796362853,0.5016767819532842,0.0026074839896557123,0.21588592077699653,0.20486923577928912,-0.011016684997707415,0.5535061291760635,0.5520556999214644,-0.0014504292545990394,0.6455228829089507
07,07_day_grayscale_transmission_tower_102,True,000001.jpg,rotation,5.0,3.260962093479465,0.49906929796362853,0.48949519745209685,-0.00957410051153168,0.21588592077699653,0.18970809084201715,-0.026177829934979385,0.5535061291760635,0.5421746214365527,-0.011331507739510749,0.6452064043209876
07,07_day_grayscale_transmission_tower_102,True,000001.jpg,rotation,10.0,6.5218191910885075,0.49906929796362853,0.48041428089875987,-0.018655017064868662,0.21588592077699653,0.17011229636383146,-0.04577362441316507,0.5535061291760635,0.5327352145403378,-0.020770914635725668,0.6449049961419753
07,07_day_grayscale_transmission_tower_102,True,000001.jpg,rotation,20.0,13.042798435497382,0.49906929796362853,0.4365642879257194,-0.06250501003790915,0.21588592077699653,0.11154661430167273,-0.1043393064753238,0.5535061291760635,0.4961687975382779,-0.05733733163778554,0.6447120949074074
07,07_day_grayscale_transmission_tower_102,True,000001.jpg,rotation,40.0,26.078877946605395,0.49906929796362853,0.3966909493072739,-0.10237834865635465,0.21588592077699653,0.05983465204844471,-0.15605126872855182,0.5535061291760635,0.46330413766574813,-0.09020199151031533,0.6395339023919753
07,07_day_grayscale_transmission_tower_102,True,000001.jpg,scale,2.0,1.304391837161547,0.49906929796362853,0.5031232547475263,0.00405395678389775,0.21588592077699653,0.21584770852472593,-3.8212252270602987e-05,0.5535061291760635,0.5555235545049446,0.0020174253288811617,0.6390998746141975
07,07_day_grayscale_transmission_tower_102,True,000001.jpg,scale,5.0,3.2609795929038707,0.49906929796362853,0.503591727490849,0.004522429527220484,0.21588592077699653,0.21034770501749817,-0.005538215759498366,0.5535061291760635,0.5543827899997991,0.0008766608237356088,0.6302866994598766
07,07_day_grayscale_transmission_tower_102,True,000001.jpg,scale,10.0,6.521959185807764,0.49906929796362853,0.48458198050667456,-0.014487317456953974,0.21588592077699653,0.18582826160330926,-0.030057659173687273,0.5535061291760635,0.5387480556541646,-0.01475807352189884,0.6159125434027778
07,07_day_grayscale_transmission_tower_102,True,000001.jpg,scale,20.0,13.043918371615554,0.49906929796362853,0.460439196648259,-0.038630101315369536,0.21588592077699653,0.14507452546513053,-0.070811395311866,0.5535061291760635,0.5164882296904121,-0.03701789948565137,0.5876042872299383
07,07_day_grayscale_transmission_tower_102,True,000001.jpg,scale,40.0,26.087836743231108,0.49906929796362853,0.4507005391214101,-0.04836875884221842,0.21588592077699653,0.10291850379474021,-0.11296741698225632,0.5535061291760635,0.5010798955093901,-0.052426233666673316,0.5331127025462963
07,07_day_grayscale_transmission_tower_102,True,000010.jpg,translation,2.0,1.999999999999984,0.466199557954448,0.4458461605858947,-0.020353397368553294,0.20339481167359277,0.16183126227574254,-0.04156354939785023,0.5339484818956222,0.513380895861883,-0.020567586033739205,0.6449622636959876
07,07_day_grayscale_transmission_tower_102,True,000010.jpg,translation,5.0,5.000000000000016,0.466199557954448,0.38781664706719204,-0.07838291088725596,0.20339481167359277,0.11274448966162502,-0.09065032201196775,0.5339484818956222,0.4720944459490023,-0.06185403594661987,0.6448296440972222
07,07_day_grayscale_transmission_tower_102,True,000010.jpg,translation,10.0,9.999999999999988,0.466199557954448,0.3881767972204482,-0.07802276073399983,0.20339481167359277,0.08375660917764788,-0.1196382024959449,0.5339484818956222,0.46502755090463604,-0.06892093099098612,0.6450255594135802
07,07_day_grayscale_transmission_tower_102,True,000010.jpg,translation,20.0,19.999999999999996,0.466199557954448,0.3645381569520456,-0.1016614010024024,0.20339481167359277,0.0469656972533233,-0.15642911442026947,0.5339484818956222,0.4440105027893536,-0.08993797910626855,0.6445433063271605
07,07_day_grayscale_transmission_tower_102,True,000010.jpg,translation,40.0,40.000000000000014,0.466199557954448,0.3139056014116308,-0.1522939565428172,0.20339481167359277,0.014532584826103282,-0.1888622268474895,0.5339484818956222,0.41058594691234124,-0.12336253498328092,0.6289906442901234
07,07_day_grayscale_transmission_tower_102,True,000010.jpg,rotation,2.0,1.30439071719688,0.466199557954448,0.4638012247270074,-0.0023983332274405966,0.20339481167359277,0.19722220447618144,-0.006172607197411334,0.5339484818956222,0.531206163482549,-0.0027423184130731526,0.6455228829089507
07,07_day_grayscale_transmission_tower_102,True,000010.jpg,rotation,5.0,3.260962093479465,0.466199557954448,0.4281943995074478,-0.0380051584470002,0.20339481167359277,0.17282249432859575,-0.03057231734499702,0.5339484818956222,0.5073028233358728,-0.02664565855974932,0.6452064043209876
07,07_day_grayscale_transmission_tower_102,True,000010.jpg,rotation,10.0,6.5218191910885075,0.466199557954448,0.4209283830677934,-0.04527117488665461,0.20339481167359277,0.14346095662014546,-0.05993385505344731,0.5339484818956222,0.4963294306889331,-0.03761905120668907,0.6449049961419753
07,07_day_grayscale_transmission_tower_102,True,000010.jpg,rotation,20.0,13.042798435497382,0.466199557954448,0.39787182705739454,-0.06832773089705346,0.20339481167359277,0.10193931336080349,-0.10145549831278929,0.5339484818956222,0.47442074186889815,-0.05952774002672401,0.6447120949074074
07,07_day_grayscale_transmission_tower_102,True,000010.jpg,rotation,40.0,26.078877946605395,0.466199557954448,0.3650290958188697,-0.10117046213557829,0.20339481167359277,0.05900976283178816,-0.14438504884180461,0.5339484818956222,0.4472669886173819,-0.08668149327824026,0.6395339023919753
07,07_day_grayscale_transmission_tower_102,True,000010.jpg,scale,2.0,1.3043918371615206,0.466199557954448,0.4686685048036057,0.002468946849157716,0.20339481167359277,0.19563411782505116,-0.007760693848541611,0.5339484818956222,0.5332427818580656,-0.0007057000375565448,0.6508065682870371
07,07_day_grayscale_transmission_tower_102,True,000010.jpg,scale,5.0,3.2609795929038707,0.466199557954448,0.44840772650805594,-0.01779183144639207,0.20339481167359277,0.16358223665483013,-0.03981257501876265,0.5339484818956222,0.5150994224177354,-0.01884905947788673,0.6596107011959876
07,07_day_grayscale_transmission_tower_102,True,000010.jpg,scale,10.0,6.521959185807743,0.466199557954448,0.41415322535592275,-0.05204633259852526,0.20339481167359277,0.1260771089185347,-0.07731770275505806,0.5339484818956222,0.48859588990759506,-0.0453525919880271,0.6744580680941358
07,07_day_grayscale_transmission_tower_102,True,000010.jpg,scale,20.0,13.043918371615554,0.466199557954448,0.3974595034319668,-0.06874005452248122,0.20339481167359277,0.11945840334886573,-0.08393640832472704,0.5339484818956222,0.4785943525531998,-0.05535412934242234,0.7025161554783951
07,07_day_grayscale_transmission_tower_102,True,000010.jpg,scale,40.0,26.087836743231108,0.466199557954448,0.3595827384146962,-0.10661681953975183,0.20339481167359277,0.07925736798107352,-0.12413744369251925,0.5339484818956222,0.4496057112026165,-0.08434277069300566,0.7348512249228395
07,07_day_grayscale_transmission_tower_102,True,000019.jpg,translation,2.0,1.999999999999984,0.3826740058199204,0.35702088452468683,-0.02565312129523356,0.155204666047423,0.14220496134300456,-0.012999704704418441,0.4801381694218159,0.46406168259809455,-0.01607648682372137,0.6449622636959876
07,07_day_grayscale_transmission_tower_102,True,000019.jpg,translation,5.0,5.000000000000016,0.3826740058199204,0.3450640340308225,-0.03760997178909792,0.155204666047423,0.10863662157897244,-0.04656804446845056,0.4801381694218159,0.4496911724101543,-0.030446997011661592,0.6448296440972222
07,07_day_grayscale_transmission_tower_102,True,000019.jpg,translation,10.0,9.999999999999988,0.3826740058199204,0.3326091118691158,-0.0500648939508046,0.155204666047423,0.07806136226496622,-0.07714330378245678,0.4801381694218159,0.43581989650079944,-0.04431827292101648,0.6450255594135802
07,07_day_grayscale_transmission_tower_102,True,000019.jpg,translation,20.0,19.999999999999996,0.3826740058199204,0.3027664141925554,-0.079907591627365,0.155204666047423,0.039050354151328764,-0.11615431189609424,0.4801381694218159,0.4111457956341099,-0.06899237378770601,0.6445433063271605
07,07_day_grayscale_transmission_tower_102,True,000019.jpg,translation,40.0,40.000000000000014,0.3826740058199204,0.2672843948411638,-0.11538961097875661,0.155204666047423,0.009504427284613473,-0.14570023876280952,0.4801381694218159,0.3860183042417352,-0.0941198651800807,0.6289906442901234
07,07_day_grayscale_transmission_tower_102,True,000019.jpg,rotation,2.0,1.3043907171968778,0.3826740058199204,0.3745421938358299,-0.00813181198409052,0.155204666047423,0.15289818606351882,-0.0023064799839041805,0.4801381694218159,0.47549564343379463,-0.004642525988021284,0.6448808834876543
07,07_day_grayscale_transmission_tower_102,True,000019.jpg,rotation,5.0,3.260962093479462,0.3826740058199204,0.3584708697995141,-0.024203136020406302,0.155204666047423,0.13436104582239708,-0.02084362022502592,0.4801381694218159,0.4628256963553563,-0.01731247306645961,0.6449170524691358
07,07_day_grayscale_transmission_tower_102,True,000019.jpg,rotation,10.0,6.521819191088505,0.3826740058199204,0.36199451281525596,-0.02067949300466443,0.155204666047423,0.10489470724992786,-0.05030995879749514,0.4801381694218159,0.4572209332201099,-0.022917236201705993,0.6449291087962963
07,07_day_grayscale_transmission_tower_102,True,000019.jpg,rotation,20.0,13.042798435497378,0.3826740058199204,0.3314678586427445,-0.05120614717717592,0.155204666047423,0.08337620602307101,-0.07182846002435199,0.4801381694218159,0.43657798082713994,-0.043560188594675975,0.6440881799768519
07,07_day_grayscale_transmission_tower_102,True,000019.jpg,rotation,40.0,26.078877946605388,0.3826740058199204,0.3234634441383418,-0.059210561681578566,0.155204666047423,0.056922946065295625,-0.09828171998212737,0.4801381694218159,0.4259624585854948,-0.05417571083632111,0.638231819058642
07,07_day_grayscale_transmission_tower_102,True,000019.jpg,scale,2.0,1.3043918371615206,0.3826740058199204,0.3767282121439429,-0.005945793675977473,0.155204666047423,0.1519974398383058,-0.0032072262091172032,0.4801381694218159,0.4763634660315479,-0.0037747033902680305,0.6508065682870371
07,07_day_grayscale_transmission_tower_102,True,000019.jpg,scale,5.0,3.2609795929038707,0.3826740058199204,0.3577618376777047,-0.024912168142215696,0.155204666047423,0.14361597100686377,-0.011588695040559233,0.4801381694218159,0.46478491159056834,-0.01535325783124758,0.6596107011959876
07,07_day_grayscale_transmission_tower_102,True,000019.jpg,scale,10.0,6.521959185807743,0.3826740058199204,0.3513531979749,-0.03132080784502039,0.155204666047423,0.12691863531354952,-0.02828603073387348,0.4801381694218159,0.45740625781583744,-0.022731911605978483,0.6744580680941358
07,07_day_grayscale_transmission_tower_102,True,000019.jpg,scale,20.0,13.043918371615554,0.3826740058199204,0.3503149969222182,-0.03235900889770221,0.155204666047423,0.11664445473859886,-0.038560211308824144,0.4801381694218159,0.45431861214575875,-0.02581955727605717,0.7025161554783951
07,07_day_grayscale_transmission_tower_102,True,000019.jpg,scale,40.0,26.087836743231108,0.3826740058199204,0.317676687942627,-0.0649973178772934,0.155204666047423,0.08876282158743425,-0.06644184445998876,0.4801381694218159,0.4310290493681721,-0.04910912005364382,0.7348512249228395
08,08_night_grayscale_urban_422,True,000001.jpg,translation,2.0,1.9999999999999898,0.14685419030798075,0.14028956485744631,-0.006564625450534434,-0.09074056677633419,-0.08706293869750134,0.0036776280788328453,0.30074195345990684,0.2983790477543478,-0.0023629057055590263,0.21337438512731483
08,08_night_grayscale_urban_422,True,000001.jpg,translation,5.0,5.000000000000018,0.14685419030798075,0.12966256521844893,-0.017191625089531815,-0.09074056677633419,-0.08715689906055253,0.003583667715781655,0.30074195345990684,0.2930420578440863,-0.007699895615820518,0.21319580078125
08,08_night_grayscale_urban_422,True,000001.jpg,translation,10.0,9.999999999999991,0.14685419030798075,0.15111856080443237,0.004264370496451619,-0.09074056677633419,-0.0005482013400078388,0.09019236543632635,0.30074195345990684,0.3254222300672142,0.024680276607307372,0.21334047670717593
08,08_night_grayscale_urban_422,True,000001.jpg,translation,20.0,19.99999999999999,0.14685419030798075,0.12351285837675184,-0.023341331931228906,-0.09074056677633419,-0.08392496072402843,0.006815606052305759,0.30074195345990684,0.2907751890073688,-0.009966764452538024,0.2132862232349537
08,08_night_grayscale_urban_422,True,000001.jpg,translation,40.0,40.00000000000002,0.14685419030798075,0.131151170371229,-0.015703019936751744,-0.09074056677633419,-0.11217653391221588,-0.021435967135881695,0.30074195345990684,0.28753145170756056,-0.013210501752346282,0.21321840639467593
08,08_night_grayscale_urban_422,True,000001.jpg,rotation,2.0,1.318222035330653,0.14685419030798075,0.126578839249945,-0.02027535105803574,-0.09074056677633419,-0.09380660811490993,-0.0030660413385757423,0.30074195345990684,0.289837767596245,-0.01090418586366182,0.21348967375578703
08,08_night_grayscale_urban_422,True,000001.jpg,rotation,5.0,3.2955425726658016,0.14685419030798075,0.14024333573867234,-0.006610854569308405,-0.09074056677633419,-0.09296003994728497,-0.002219473170950781,0.30074195345990684,0.2968816578825149,-0.0038602955773919256,0.2131641529224537
08,08_night_grayscale_urban_422,True,000001.jpg,rotation,10.0,6.590995748219984,0.14685419030798075,0.141205101349568,-0.005649088958412735,-0.09074056677633419,-0.09475080066337498,-0.00401023388704079,0.30074195345990684,0.2969148505089403,-0.0038271029509665544,0.2132907443576389
08,08_night_grayscale_urban_422,True,000001.jpg,rotation,20.0,13.181276334097188,0.14685419030798075,0.12572835475425084,-0.021125835553729905,-0.09074056677633419,-0.10148757268825934,-0.01074700591192515,0.30074195345990684,0.28749228420506057,-0.013249669254846275,0.21331787109375
08,08_night_grayscale_urban_422,True,000001.jpg,rotation,40.0,26.356831835040015,0.14685419030798075,0.11523479776834379,-0.031619392539636956,-0.09074056677633419,-0.11237839952583704,-0.02163783274950286,0.30074195345990684,0.27952279900271265,-0.02121915445719419,0.21329300491898148
08,08_night_grayscale_urban_422,True,000001.jpg,scale,2.0,1.3182229889061245,0.14685419030798075,0.13232607626499637,-0.014528114042984375,-0.09074056677633419,-0.08978809601801382,0.0009524707583203618,0.30074195345990684,0.29371601412799475,-0.00702593933191209,0.2149635597511574
08,08_night_grayscale_urban_422,True,000001.jpg,scale,5.0,3.295557472265234,0.14685419030798075,0.1496384391734133,0.002784248865432548,-0.09074056677633419,-0.08938046986128118,0.0013600969150530107,0.30074195345990684,0.30247410212138637,0.0017321486614795267,0.2176852756076389
08,08_night_grayscale_urban_422,True,000001.jpg,scale,10.0,6.591114944530493,0.14685419030798075,0.13594037512250215,-0.010913815185478598,-0.09074056677633419,-0.09010441511791246,0.0006361516584217214,0.30074195345990684,0.29544408378177295,-0.005297869678133893,0.22221770109953703
08,08_night_grayscale_urban_422,True,000001.jpg,scale,20.0,13.182229889060963,0.14685419030798075,0.12183052024449714,-0.025023670063483605,-0.09074056677633419,-0.09847196950915645,-0.0077314027328222595,0.30074195345990684,0.28629726774495945,-0.014444685714947392,0.23140688295717593
08,08_night_grayscale_urban_422,True,000001.jpg,scale,40.0,26.364459778121955,0.14685419030798075,0.11354011910292265,-0.033314071205058096,-0.09074056677633419,-0.09956768520568963,-0.008827118429355449,0.30074195345990684,0.28187813825003893,-0.018863815209867907,0.2502780490451389
08,08_night_grayscale_urban_422,True,000039.jpg,translation,2.0,1.9999999999999898,0.3680139420727337,0.33626529565458885,-0.031748646418144844,0.1687122844440145,0.16531275592487182,-0.003399528519142686,0.47618504214737045,0.45946083680851235,-0.0167242053388581,0.21346254701967593
08,08_night_grayscale_urban_422,True,000039.jpg,translation,5.0,5.000000000000018,0.3680139420727337,0.31794251438898324,-0.05007142768375045,0.1687122844440145,0.15666256000784093,-0.012049724436173581,0.47618504214737045,0.44813689719645183,-0.02804814495091862,0.21318675853587962
08,08_night_grayscale_urban_422,True,000039.jpg,translation,10.0,9.999999999999991,0.3680139420727337,0.33149891080486504,-0.03651503126786865,0.1687122844440145,0.16377434311653774,-0.004937941327476769,0.47618504214737045,0.45669304118156695,-0.019492000965803502,0.2133721245659722
08,08_night_grayscale_urban_422,True,000039.jpg,translation,20.0,19.99999999999999,0.3680139420727337,0.3243035338454369,-0.04371040822729677,0.1687122844440145,0.0835969998899867,-0.08511528455402781,0.47618504214737045,0.4330510168952152,-0.04313402525215526,0.21324779369212962
08,08_night_grayscale_urban_422,True,000039.jpg,translation,40.0,40.00000000000002,0.3680139420727337,0.2613373534091683,-0.10667658866356539,0.1687122844440145,-0.018657412902164435,-0.18736969734617895,0.47618504214737045,0.37600432347904306,-0.1001807186683274,0.2132025824652778
08,08_night_grayscale_urban_422,True,000039.jpg,rotation,2.0,1.3182220353306504,0.3680139420727337,0.368491682651817,0.0004777405790832856,0.1687122844440145,0.16955074382318305,0.0008384593791685435,0.47618504214737045,0.4766335272817043,0.0004484851343338203,0.2133246527777778
08,08_night_grayscale_urban_422,True,000039.jpg,rotation,5.0,3.2955425726658034,0.3680139420727337,0.3503740788405711,-0.0176398632321626,0.1687122844440145,0.1647246377305561,-0.003987646713458415,0.47618504214737045,0.4663681988529246,-0.009816843294445876,0.2132229275173611
08,08_night_grayscale_urban_422,True,000039.jpg,rotation,10.0,6.590995748219982,0.3680139420727337,0.32567554693101874,-0.042338395141714946,0.1687122844440145,0.15572781181524914,-0.01298447262876537,0.47618504214737045,0.45176972641932167,-0.02441531572804878,0.21330430772569445
